; generated by PrusaSlicer 2.5.0+win64 on 2023-01-17 at 20:48:06 UTC

; 

; external perimeters extrusion width = 0.45mm
; perimeters extrusion width = 0.45mm
; infill extrusion width = 0.45mm
; solid infill extrusion width = 0.45mm
; top infill extrusion width = 0.40mm
; first layer extrusion width = 0.42mm

M73 P0 R296
M73 Q0 S297
M107
;TYPE:Custom
M862.3 P "MK3S" ; printer model check
M862.1 P0.4 ; nozzle diameter check
M115 U3.9.3 ; tell printer latest fw version
G90 ; use absolute coordinates
M83 ; extruder relative mode
M104 S230 ; set extruder temp
M140 S85 ; set bed temp
M190 S85 ; wait for bed temp
M109 S230 ; wait for extruder temp
G28 W ; home all without mesh bed level
G80 ; mesh bed leveling
G1 Y-3.0 F1000.0 ; go outside print area
G92 E0.0
G1 X60.0 E9.0 F1000.0 ; intro line
G1 X100.0 E12.5 F1000.0 ; intro line
G92 E0.0
M221 S95

; Don't change E values below. Excessive value can damage the printer.

M907 E538 ; set extruder motor current
G21 ; set units to millimeters
G90 ; use absolute coordinates
M83 ; use relative distances for extrusion
M900 K0.08 ; Filament gcode LA 1.5
M900 K45 ; Filament gcode LA 1.0
M107
;LAYER_CHANGE
;Z:0.2
;HEIGHT:0.2
;BEFORE_LAYER_CHANGE
G92 E0.0
;0.2


G1 E-1.4 F2100
G1 Z.4 F720
;AFTER_LAYER_CHANGE
;0.2
G1 Z.6
G1 X75.555 Y43.62 F10800
G1 Z.4 F720
G1 E1.38 F2100
M204 S800
;TYPE:Skirt/Brim
;WIDTH:0.42
G1 F1200
G1 X81.871 Y32.678 E.34855
G1 X82.864 Y31.742 E.03764
G1 X83.93 Y31.49 E.03022
G1 X166.068 Y31.49 E2.26612
G1 X167.375 Y31.882 E.03764
G1 X168.127 Y32.678 E.03022
G1 X209.195 Y103.813 E2.2661
G1 X209.509 Y105.14 E.03764
G1 X209.195 Y106.189 E.03022
G1 X168.127 Y177.324 E2.26609
G1 X167.134 Y178.26 E.03764
M73 P0 R295
G1 X166.068 Y178.512 E.03022
G1 X83.93 Y178.512 E2.26612
G1 X82.623 Y178.12 E.03764
G1 X81.871 Y177.324 E.03022
G1 X40.804 Y106.189 E2.26609
G1 X40.489 Y104.862 E.03764
G1 X40.804 Y103.813 E.03022
G1 X75.525 Y43.671 E1.91589
M204 S1000
; printing object BottomV2 id:0 copy 0
;WIPE_START
G1 F8640
G1 X78.404 Y38.683 E-1.33
;WIPE_END
G1 E-.07 F2100
G1 Z.6 F720
G1 X86.719 Y39.99 F10800
G1 Z.4 F720
G1 E1.38 F2100
M204 S800
;TYPE:Perimeter
;WIDTH:0.419999
G1 F1200
G1 X87.281 Y39.563 E.01948
G1 X87.79 Y39.344 E.01527
G1 X88.62 Y39.214 E.02318
G1 X161.378 Y39.214 E2.00731
G1 X162.081 Y39.311 E.0196
M73 Q0 S296
G1 X162.808 Y39.615 E.02174
G1 X163.421 Y40.116 E.02182
G1 X163.784 Y40.603 E.01676
G1 X200.161 Y103.611 E2.00725
G1 X200.43 Y104.27 E.01962
G1 X200.53 Y104.912 E.01794
G1 X200.468 Y105.578 E.01843
G1 X200.161 Y106.39 E.02396
G1 X163.784 Y169.399 E2.00725
G1 X163.347 Y169.96 E.01963
G1 X162.928 Y170.312 E.01509
G1 X162.235 Y170.648 E.02125
G1 X161.379 Y170.788 E.02393
G1 X88.619 Y170.788 E2.00736
G1 X87.919 Y170.694 E.01949
G1 X87.397 Y170.5 E.01536
G1 X86.765 Y170.068 E.02112
G1 X86.216 Y169.399 E.02387
G1 X49.837 Y106.39 E2.00729
G1 X49.568 Y105.735 E.01954
G1 X49.474 Y105.19 E.01527
G1 X49.53 Y104.427 E.02111
G1 X49.837 Y103.612 E.02402
G1 X86.216 Y40.603 E2.00729
G1 X86.671 Y40.026 E.02026
M204 S1000
G1 X86.946 Y40.276 F10800
M204 S800
;TYPE:External perimeter
G1 F1200
G1 X87.501 Y39.87 E.01896
G1 X87.97 Y39.684 E.01393
G1 X88.62 Y39.591 E.0181
G1 X161.378 Y39.591 E2.00731
G1 X162.027 Y39.684 E.0181
G1 X162.653 Y39.959 E.01886
G1 X163.174 Y40.401 E.01884
G1 X163.457 Y40.791 E.01332
G1 X199.834 Y103.8 E2.00725
G1 X200.08 Y104.41 E.01813
G1 X200.153 Y104.899 E.01366
G1 X200.093 Y105.542 E.01781
G1 X199.835 Y106.202 E.01953
G1 X163.458 Y169.21 E2.00725
G1 X163.051 Y169.725 E.01809
G1 X162.654 Y170.04 E.01399
G1 X162.078 Y170.305 E.01751
G1 X161.379 Y170.411 E.0195
G1 X88.619 Y170.411 E2.00736
G1 X87.972 Y170.321 E.01802
G1 X87.5 Y170.13 E.01406
G1 X86.985 Y169.761 E.01747
G1 X86.543 Y169.211 E.01948
G1 X50.163 Y106.202 E2.00729
G1 X49.918 Y105.595 E.01806
G1 X49.846 Y105.091 E.01403
G1 X49.905 Y104.462 E.01744
G1 X50.163 Y103.8 E.01959
G1 X86.543 Y40.791 E2.00729
G1 X86.909 Y40.323 E.01641
M204 S1000
G1 X86.849 Y39.888 F10800
;WIPE_START
G1 F8640
G1 X87.501 Y39.87 E-.17202
G1 X87.97 Y39.684 E-.11657
G1 X88.62 Y39.591 E-.15152
G1 X92.474 Y39.591 E-.88989
;WIPE_END
G1 E-.07 F2100
G1 Z.6 F720
G1 X206.103 Y105.001 F10800
G1 Z.4 F720
M73 P0 R294
G1 E1.38 F2100
M204 S800
;TYPE:Perimeter
G1 F1200
G1 X165.552 Y175.241 E2.2376
G1 X84.446 Y175.241 E2.23763
G1 X43.895 Y105.001 E2.2376
G1 X84.446 Y34.761 E2.2376
G1 X165.552 Y34.761 E2.23763
M73 Q0 S295
G1 X206.073 Y104.949 E2.23594
M204 S1000
G1 X206.539 Y105.001 F10800
M204 S800
;TYPE:External perimeter
G1 F1200
G1 X165.77 Y175.618 E2.24961
G1 X84.228 Y175.618 E2.24964
G1 X43.459 Y105.001 E2.24961
G1 X84.228 Y34.384 E2.24961
G1 X165.77 Y34.384 E2.24964
G1 X206.509 Y104.949 E2.24795
M204 S1000
G1 X206.192 Y105.201 F10800
;WIPE_START
G1 F8640
G1 X203.632 Y109.939 E-1.33
;WIPE_END
G1 E-.07 F2100
G1 Z.6 F720
G1 X166.541 Y36.701 F10800
G1 Z.4 F720
G1 E1.38 F2100
M204 S800
;TYPE:Solid infill
;WIDTH:0.420877
G1 F1200
G1 X164.884 Y35.044 E.0648
G1 X164.35 Y35.044 E.01478
G1 X166.808 Y37.502 E.09613
G1 X167.538 Y38.767 E.04038
G1 X163.815 Y35.044 E.14558
G1 X163.281 Y35.044 E.01478
G1 X168.268 Y40.031 E.19504
G1 X168.998 Y41.296 E.04038
G1 X162.746 Y35.044 E.24449
G1 X162.212 Y35.044 E.01478
G1 X169.728 Y42.56 E.29395
G1 X170.458 Y43.825 E.04038
G1 X161.677 Y35.044 E.3434
G1 X161.143 Y35.044 E.01478
G1 X171.188 Y45.09 E.39286
G1 X171.919 Y46.354 E.04038
G1 X160.608 Y35.044 E.44231
G1 X160.074 Y35.044 E.01478
G1 X172.649 Y47.619 E.49177
G1 X173.379 Y48.883 E.04038
G1 X159.539 Y35.044 E.54122
G1 X159.005 Y35.044 E.01478
G1 X174.109 Y50.148 E.59068
G1 X174.839 Y51.413 E.04038
G1 X164.222 Y40.796 E.4152
G1 X164.027 Y40.458 E.01079
G1 X163.738 Y40.046 E.0139
G1 X163.61 Y39.906 E.00524
G1 X163.127 Y39.487 E.01769
G1 X162.977 Y39.383 E.00506
G1 X162.669 Y39.243 E.00935
G1 X158.47 Y35.044 E.1642
G1 X157.936 Y35.044 E.01478
G1 X161.891 Y39 E.15469
G1 X161.288 Y38.931 E.01678
G1 X157.401 Y35.044 E.15201
G1 X156.867 Y35.044 E.01478
M73 P0 R293
G1 X160.754 Y38.931 E.15201
G1 X160.219 Y38.931 E.01478
G1 X156.332 Y35.044 E.15201
G1 X155.798 Y35.044 E.01478
G1 X159.685 Y38.931 E.15201
G1 X159.15 Y38.931 E.01478
G1 X155.263 Y35.044 E.15201
G1 X154.729 Y35.044 E.01478
G1 X158.616 Y38.931 E.15201
G1 X158.081 Y38.931 E.01478
G1 X154.194 Y35.044 E.15201
G1 X153.66 Y35.044 E.01478
G1 X157.547 Y38.931 E.15201
G1 X157.012 Y38.931 E.01478
G1 X153.125 Y35.044 E.15201
G1 X152.591 Y35.044 E.01478
G1 X156.478 Y38.931 E.15201
G1 X155.943 Y38.931 E.01478
G1 X152.056 Y35.044 E.15201
G1 X151.522 Y35.044 E.01478
G1 X155.409 Y38.931 E.15201
G1 X154.874 Y38.931 E.01478
G1 X150.987 Y35.044 E.15201
G1 X150.453 Y35.044 E.01478
G1 X154.34 Y38.931 E.15201
G1 X153.805 Y38.931 E.01478
G1 X149.918 Y35.044 E.15201
G1 X149.384 Y35.044 E.01478
G1 X153.271 Y38.931 E.15201
G1 X152.736 Y38.931 E.01478
G1 X148.849 Y35.044 E.15201
G1 X148.315 Y35.044 E.01478
G1 X152.202 Y38.931 E.15201
G1 X151.667 Y38.931 E.01478
G1 X147.78 Y35.044 E.15201
G1 X147.246 Y35.044 E.01478
G1 X151.133 Y38.931 E.15201
G1 X150.598 Y38.931 E.01478
G1 X146.711 Y35.044 E.15201
G1 X146.176 Y35.044 E.01478
G1 X150.064 Y38.931 E.15201
G1 X149.529 Y38.931 E.01478
G1 X145.642 Y35.044 E.15201
G1 X145.107 Y35.044 E.01478
G1 X148.995 Y38.931 E.15201
G1 X148.46 Y38.931 E.01478
G1 X144.573 Y35.044 E.15201
G1 X144.038 Y35.044 E.01478
G1 X147.926 Y38.931 E.15201
G1 X147.391 Y38.931 E.01478
G1 X143.504 Y35.044 E.15201
G1 X142.969 Y35.044 E.01478
G1 X146.856 Y38.931 E.15201
G1 X146.322 Y38.931 E.01478
G1 X142.435 Y35.044 E.15201
G1 X141.9 Y35.044 E.01478
G1 X145.787 Y38.931 E.15201
G1 X145.253 Y38.931 E.01478
G1 X141.366 Y35.044 E.15201
G1 X140.831 Y35.044 E.01478
G1 X144.718 Y38.931 E.15201
G1 X144.184 Y38.931 E.01478
G1 X140.297 Y35.044 E.15201
G1 X139.762 Y35.044 E.01478
G1 X143.649 Y38.931 E.15201
G1 X143.115 Y38.931 E.01478
G1 X139.228 Y35.044 E.15201
G1 X138.693 Y35.044 E.01478
G1 X142.58 Y38.931 E.15201
G1 X142.046 Y38.931 E.01478
G1 X138.159 Y35.044 E.15201
G1 X137.624 Y35.044 E.01478
G1 X141.511 Y38.931 E.15201
G1 X140.977 Y38.931 E.01478
G1 X137.09 Y35.044 E.15201
G1 X136.555 Y35.044 E.01478
G1 X140.442 Y38.931 E.15201
G1 X139.908 Y38.931 E.01478
G1 X136.021 Y35.044 E.15201
G1 X135.486 Y35.044 E.01478
G1 X139.373 Y38.931 E.15201
G1 X138.839 Y38.931 E.01478
G1 X134.952 Y35.044 E.15201
G1 X134.417 Y35.044 E.01478
G1 X138.304 Y38.931 E.15201
G1 X137.77 Y38.931 E.01478
G1 X133.883 Y35.044 E.15201
G1 X133.348 Y35.044 E.01478
G1 X137.235 Y38.931 E.15201
G1 X136.701 Y38.931 E.01478
G1 X132.814 Y35.044 E.15201
G1 X132.279 Y35.044 E.01478
G1 X136.166 Y38.931 E.15201
G1 X135.632 Y38.931 E.01478
G1 X131.745 Y35.044 E.15201
G1 X131.21 Y35.044 E.01478
G1 X135.097 Y38.931 E.15201
G1 X134.563 Y38.931 E.01478
G1 X130.676 Y35.044 E.15201
G1 X130.141 Y35.044 E.01478
M73 Q0 S294
G1 X134.028 Y38.931 E.15201
G1 X133.494 Y38.931 E.01478
G1 X129.607 Y35.044 E.15201
G1 X129.072 Y35.044 E.01478
G1 X132.959 Y38.931 E.15201
G1 X132.425 Y38.931 E.01478
G1 X128.538 Y35.044 E.15201
G1 X128.003 Y35.044 E.01478
G1 X131.89 Y38.931 E.15201
G1 X131.356 Y38.931 E.01478
G1 X127.469 Y35.044 E.15201
G1 X126.934 Y35.044 E.01478
G1 X130.821 Y38.931 E.15201
G1 X130.287 Y38.931 E.01478
G1 X126.4 Y35.044 E.15201
G1 X125.865 Y35.044 E.01478
G1 X129.752 Y38.931 E.15201
G1 X129.218 Y38.931 E.01478
G1 X125.331 Y35.044 E.15201
G1 X124.796 Y35.044 E.01478
G1 X128.683 Y38.931 E.15201
G1 X128.149 Y38.931 E.01478
G1 X124.262 Y35.044 E.15201
G1 X123.727 Y35.044 E.01478
G1 X127.614 Y38.931 E.15201
G1 X127.08 Y38.931 E.01478
G1 X123.192 Y35.044 E.15201
G1 X122.658 Y35.044 E.01478
G1 X126.545 Y38.931 E.15201
G1 X126.011 Y38.931 E.01478
G1 X122.123 Y35.044 E.15201
G1 X121.589 Y35.044 E.01478
G1 X125.476 Y38.931 E.15201
G1 X124.942 Y38.931 E.01478
G1 X121.054 Y35.044 E.15201
G1 X120.52 Y35.044 E.01478
G1 X124.407 Y38.931 E.15201
G1 X123.872 Y38.931 E.01478
G1 X119.985 Y35.044 E.15201
G1 X119.451 Y35.044 E.01478
G1 X123.338 Y38.931 E.15201
G1 X122.803 Y38.931 E.01478
G1 X118.916 Y35.044 E.15201
G1 X118.382 Y35.044 E.01478
G1 X122.269 Y38.931 E.15201
G1 X121.734 Y38.931 E.01478
G1 X117.847 Y35.044 E.15201
G1 X117.313 Y35.044 E.01478
G1 X121.2 Y38.931 E.15201
G1 X120.665 Y38.931 E.01478
G1 X116.778 Y35.044 E.15201
G1 X116.244 Y35.044 E.01478
G1 X120.131 Y38.931 E.15201
G1 X119.596 Y38.931 E.01478
G1 X115.709 Y35.044 E.15201
G1 X115.175 Y35.044 E.01478
G1 X119.062 Y38.931 E.15201
G1 X118.527 Y38.931 E.01478
G1 X114.64 Y35.044 E.15201
G1 X114.106 Y35.044 E.01478
G1 X117.993 Y38.931 E.15201
G1 X117.458 Y38.931 E.01478
G1 X113.571 Y35.044 E.15201
G1 X113.037 Y35.044 E.01478
G1 X116.924 Y38.931 E.15201
G1 X116.389 Y38.931 E.01478
G1 X112.502 Y35.044 E.15201
G1 X111.968 Y35.044 E.01478
G1 X115.855 Y38.931 E.15201
G1 X115.32 Y38.931 E.01478
G1 X111.433 Y35.044 E.15201
G1 X110.899 Y35.044 E.01478
G1 X114.786 Y38.931 E.15201
G1 X114.251 Y38.931 E.01478
G1 X110.364 Y35.044 E.15201
G1 X109.83 Y35.044 E.01478
G1 X113.717 Y38.931 E.15201
G1 X113.182 Y38.931 E.01478
G1 X109.295 Y35.044 E.15201
G1 X108.761 Y35.044 E.01478
G1 X112.648 Y38.931 E.15201
G1 X112.113 Y38.931 E.01478
G1 X108.226 Y35.044 E.15201
G1 X107.692 Y35.044 E.01478
G1 X111.579 Y38.931 E.15201
G1 X111.044 Y38.931 E.01478
G1 X107.157 Y35.044 E.15201
G1 X106.623 Y35.044 E.01478
G1 X110.51 Y38.931 E.15201
G1 X109.975 Y38.931 E.01478
G1 X106.088 Y35.044 E.15201
G1 X105.554 Y35.044 E.01478
G1 X109.441 Y38.931 E.15201
G1 X108.906 Y38.931 E.01478
G1 X105.019 Y35.044 E.15201
G1 X104.485 Y35.044 E.01478
G1 X108.372 Y38.931 E.15201
G1 X107.837 Y38.931 E.01478
G1 X103.95 Y35.044 E.15201
G1 X103.416 Y35.044 E.01478
G1 X107.303 Y38.931 E.15201
G1 X106.768 Y38.931 E.01478
G1 X102.881 Y35.044 E.15201
G1 X102.347 Y35.044 E.01478
G1 X106.234 Y38.931 E.15201
G1 X105.699 Y38.931 E.01478
G1 X101.812 Y35.044 E.15201
G1 X101.277 Y35.044 E.01478
G1 X105.165 Y38.931 E.15201
G1 X104.63 Y38.931 E.01478
G1 X100.743 Y35.044 E.15201
G1 X100.208 Y35.044 E.01478
G1 X104.096 Y38.931 E.15201
G1 X103.561 Y38.931 E.01478
G1 X99.674 Y35.044 E.15201
G1 X99.139 Y35.044 E.01478
G1 X103.027 Y38.931 E.15201
G1 X102.492 Y38.931 E.01478
G1 X98.605 Y35.044 E.15201
G1 X98.07 Y35.044 E.01478
G1 X101.957 Y38.931 E.15201
G1 X101.423 Y38.931 E.01478
G1 X97.536 Y35.044 E.15201
G1 X97.001 Y35.044 E.01478
G1 X100.888 Y38.931 E.15201
G1 X100.354 Y38.931 E.01478
G1 X96.467 Y35.044 E.15201
G1 X95.932 Y35.044 E.01478
G1 X99.819 Y38.931 E.15201
G1 X99.285 Y38.931 E.01478
G1 X95.398 Y35.044 E.15201
G1 X94.863 Y35.044 E.01478
G1 X98.75 Y38.931 E.15201
G1 X98.216 Y38.931 E.01478
G1 X94.329 Y35.044 E.15201
G1 X93.794 Y35.044 E.01478
G1 X97.681 Y38.931 E.15201
G1 X97.147 Y38.931 E.01478
G1 X93.26 Y35.044 E.15201
G1 X92.725 Y35.044 E.01478
G1 X96.612 Y38.931 E.15201
G1 X96.078 Y38.931 E.01478
G1 X92.191 Y35.044 E.15201
G1 X91.656 Y35.044 E.01478
G1 X95.543 Y38.931 E.15201
G1 X95.009 Y38.931 E.01478
G1 X91.122 Y35.044 E.15201
G1 X90.587 Y35.044 E.01478
G1 X94.474 Y38.931 E.15201
G1 X93.94 Y38.931 E.01478
M73 P1 R293
M73 Q1 S294
G1 X90.053 Y35.044 E.15201
G1 X89.518 Y35.044 E.01478
G1 X93.405 Y38.931 E.15201
G1 X92.871 Y38.931 E.01478
G1 X88.984 Y35.044 E.15201
G1 X88.449 Y35.044 E.01478
G1 X92.336 Y38.931 E.15201
G1 X91.802 Y38.931 E.01478
G1 X87.915 Y35.044 E.15201
G1 X87.38 Y35.044 E.01478
G1 X91.267 Y38.931 E.15201
G1 X90.733 Y38.931 E.01478
G1 X86.846 Y35.044 E.15201
G1 X86.311 Y35.044 E.01478
G1 X90.198 Y38.931 E.15201
G1 X89.664 Y38.931 E.01478
G1 X85.777 Y35.044 E.15201
G1 X85.242 Y35.044 E.01478
G1 X89.129 Y38.931 E.15201
G1 X88.597 Y38.933 E.01472
G1 X84.708 Y35.044 E.1521
G1 X84.609 Y35.044 E.00272
G1 X84.45 Y35.321 E.00883
G1 X88.126 Y38.997 E.14379
G1 X87.848 Y39.035 E.00777
G1 X87.679 Y39.084 E.00487
G1 X84.254 Y35.659 E.13394
G1 X84.058 Y35.998 E.01082
G1 X87.303 Y39.243 E.12688
G1 X87.165 Y39.301 E.00414
G1 X86.967 Y39.442 E.00671
G1 X83.863 Y36.337 E.1214
G1 X83.667 Y36.676 E.01082
G1 X86.655 Y39.664 E.11684
G1 X86.383 Y39.926 E.01045
G1 X83.471 Y37.015 E.11385
G1 X83.276 Y37.354 E.01082
G1 X86.15 Y40.228 E.1124
G1 X85.926 Y40.539 E.01059
G1 X83.08 Y37.693 E.11131
G1 X82.885 Y38.032 E.01082
G1 X85.731 Y40.878 E.11131
G1 X85.535 Y41.217 E.01082
G1 X82.689 Y38.37 E.11131
G1 X82.493 Y38.709 E.01082
G1 X85.339 Y41.556 E.11131
G1 X85.144 Y41.894 E.01082
G1 X82.298 Y39.048 E.11131
G1 X82.102 Y39.387 E.01082
G1 X84.948 Y42.233 E.11131
G1 X84.753 Y42.572 E.01082
G1 X81.906 Y39.726 E.11131
G1 X81.711 Y40.065 E.01082
G1 X84.557 Y42.911 E.11131
G1 X84.361 Y43.25 E.01082
G1 X81.515 Y40.404 E.11131
G1 X81.319 Y40.743 E.01082
G1 X84.166 Y43.589 E.11131
G1 X83.97 Y43.928 E.01082
G1 X81.124 Y41.081 E.11131
G1 X80.928 Y41.42 E.01082
G1 X83.774 Y44.266 E.11131
G1 X83.579 Y44.605 E.01082
G1 X80.732 Y41.759 E.11131
G1 X80.537 Y42.098 E.01082
G1 X83.383 Y44.944 E.11131
G1 X83.187 Y45.283 E.01082
G1 X80.341 Y42.437 E.1113
G1 X80.146 Y42.776 E.01082
G1 X82.992 Y45.622 E.1113
G1 X82.796 Y45.961 E.01082
G1 X79.95 Y43.115 E.1113
G1 X79.754 Y43.454 E.01082
G1 X82.6 Y46.3 E.1113
G1 X82.405 Y46.638 E.01082
G1 X79.559 Y43.792 E.1113
G1 X79.363 Y44.131 E.01082
G1 X82.209 Y46.977 E.1113
G1 X82.013 Y47.316 E.01082
G1 X79.167 Y44.47 E.1113
G1 X78.972 Y44.809 E.01082
G1 X81.818 Y47.655 E.1113
G1 X81.622 Y47.994 E.01082
G1 X78.776 Y45.148 E.1113
G1 X78.58 Y45.487 E.01082
G1 X81.426 Y48.333 E.1113
G1 X81.231 Y48.672 E.01082
G1 X78.385 Y45.826 E.1113
G1 X78.189 Y46.164 E.01082
G1 X81.035 Y49.011 E.1113
G1 X80.84 Y49.349 E.01082
G1 X77.994 Y46.503 E.1113
G1 X77.798 Y46.842 E.01082
G1 X80.644 Y49.688 E.1113
G1 X80.448 Y50.027 E.01082
G1 X77.602 Y47.181 E.1113
G1 X77.407 Y47.52 E.01082
G1 X80.253 Y50.366 E.1113
G1 X80.057 Y50.705 E.01082
G1 X77.211 Y47.859 E.1113
G1 X77.015 Y48.198 E.01082
G1 X79.861 Y51.044 E.1113
G1 X79.666 Y51.383 E.01082
G1 X76.82 Y48.537 E.1113
G1 X76.624 Y48.875 E.01082
G1 X79.47 Y51.721 E.1113
G1 X79.274 Y52.06 E.01082
G1 X76.428 Y49.214 E.1113
G1 X76.233 Y49.553 E.01082
G1 X79.079 Y52.399 E.1113
G1 X78.883 Y52.738 E.01082
G1 X76.037 Y49.892 E.1113
G1 X75.841 Y50.231 E.01082
G1 X78.687 Y53.077 E.1113
G1 X78.492 Y53.416 E.01082
G1 X75.646 Y50.57 E.1113
