; generated by PrusaSlicer 2.5.0+win64 on 2023-01-28 at 20:14:57 UTC

; 

; external perimeters extrusion width = 0.45mm
; perimeters extrusion width = 0.45mm
; infill extrusion width = 0.45mm
; solid infill extrusion width = 0.45mm
; top infill extrusion width = 0.40mm
; support material extrusion width = 0.35mm
; first layer extrusion width = 0.42mm

; external perimeters extrusion width = 0.45mm
; perimeters extrusion width = 0.45mm
; infill extrusion width = 0.45mm
; solid infill extrusion width = 0.45mm
; top infill extrusion width = 0.40mm
; support material extrusion width = 0.35mm
; first layer extrusion width = 0.42mm

; external perimeters extrusion width = 0.45mm
; perimeters extrusion width = 0.45mm
; infill extrusion width = 0.45mm
; solid infill extrusion width = 0.45mm
; top infill extrusion width = 0.40mm
; support material extrusion width = 0.35mm
; first layer extrusion width = 0.42mm

M73 P0 R232
M73 Q0 S233
M107
;TYPE:Custom
M862.3 P "MK3S" ; printer model check
M862.1 P0.4 ; nozzle diameter check
M115 U3.9.3 ; tell printer latest fw version
G90 ; use absolute coordinates
M83 ; extruder relative mode
M104 S245 ; set extruder temp
M140 S85 ; set bed temp
M190 S85 ; wait for bed temp
M109 S245 ; wait for extruder temp
G28 W ; home all without mesh bed level
G80 ; mesh bed leveling
G1 Y-3.0 F1000.0 ; go outside print area
G92 E0.0
G1 X60.0 E9.0 F1000.0 ; intro line
G1 X100.0 E12.5 F1000.0 ; intro line
G92 E0.0
M221 S95

; Don't change E values below. Excessive value can damage the printer.

M907 E538 ; set extruder motor current
G21 ; set units to millimeters
G90 ; use absolute coordinates
M83 ; use relative distances for extrusion
M900 K0.08 ; Filament gcode LA 1.5
M900 K45 ; Filament gcode LA 1.0
M107
;LAYER_CHANGE
;Z:0.2
;HEIGHT:0.2
;BEFORE_LAYER_CHANGE
G92 E0.0
;0.2


G1 E-1.4 F2100
G1 Z.4 F720
;AFTER_LAYER_CHANGE
;0.2
G1 Z.6
G1 X57.671 Y38.343 F10800
G1 Z.4 F720
G1 E1.38 F2100
M204 S800
;TYPE:Skirt/Brim
;WIDTH:0.42
G1 F1200
G1 X59.908 Y35.366 E.10275
G1 X62.375 Y32.649 E.10125
G1 X63.721 Y31.359 E.05143
G1 X65.75 Y29.624 E.07365
G1 X68.72 Y27.468 E.10125
G1 X71.924 Y25.569 E.10275
G1 X75.24 Y23.998 E.10125
G1 X78.715 Y22.73 E.10204
G1 X81.287 Y22.018 E.07365
G1 X83.081 Y21.629 E.05064
G1 X86.767 Y21.095 E.10275
G1 X88.597 Y20.959 E.05064
G1 X91.295 Y20.913 E.07444
G1 X94.958 Y21.142 E.10125
G1 X97.736 Y21.545 E.07746
G1 X101.313 Y22.364 E.10125
G1 X104.8 Y23.508 E.10125
G1 X108.167 Y24.968 E.10125
G1 X111.385 Y26.732 E.10125
G1 X114.384 Y28.751 E.09974
G1 X117.228 Y31.07 E.10125
G1 X119.215 Y32.976 E.07595
G1 X121.089 Y35.042 E.07697
G1 X162.925 Y84.923 E1.79611
G1 X163.481 Y86.45 E.04485
G1 X163.481 Y120.022 E.92621
G1 X162.927 Y121.548 E.04479
G1 X120.493 Y172.232 E1.8237
G1 X118.655 Y174.261 E.07552
G1 X116.671 Y176.169 E.07595
G1 X113.83 Y178.492 E.10125
G1 X110.787 Y180.544 E.10125
G1 X107.52 Y182.331 E.10276
G1 X104.151 Y183.787 E.10125
G1 X100.663 Y184.927 E.10124
G1 X97.084 Y185.741 E.10125
G1 X93.446 Y186.222 E.10125
G1 X89.779 Y186.368 E.10125
G1 X86.169 Y186.181 E.09974
G1 X83.386 Y185.81 E.07745
G1 X79.852 Y185.046 E.09974
G1 X77.217 Y184.252 E.07595
G1 X74.592 Y183.256 E.07746
G1 X72.092 Y182.103 E.07595
G1 X68.941 Y180.332 E.09974
G1 X66.612 Y178.764 E.07746
G1 X63.785 Y176.51 E.09974
G1 X61.738 Y174.588 E.07746
G1 X59.867 Y172.569 E.07595
G1 X57.63 Y169.73 E.09974
G1 X56.075 Y167.392 E.07745
G1 X54.322 Y164.23 E.09974
G1 X53.162 Y161.674 E.07746
G1 X51.939 Y158.272 E.09974
G1 X51.204 Y155.562 E.07745
G1 X50.671 Y152.861 E.07595
G1 X50.325 Y150.13 E.07595
G1 X50.169 Y147.382 E.07595
G1 X50.757 Y60.767 E2.38966
G1 X50.929 Y57.091 E.10154
G1 X51.153 Y55.182 E.05302
G1 X51.604 Y52.61 E.07206
G1 X52.537 Y49.004 E.10275
G1 X53.781 Y45.552 E.10125
G1 X55.338 Y42.228 E.10125
G1 X56.673 Y39.884 E.07444
G1 X57.638 Y38.394 E.04898
M204 S1000
; printing object LightHolder Top id:2 copy 0
;WIPE_START
G1 F8640
G1 X59.908 Y35.366 E-.8738
G1 X61.236 Y33.903 E-.4562
;WIPE_END
G1 E-.07 F2100
G1 Z.6 F720
G1 X53.488 Y143.033 F10800
G1 Z.4 F720
G1 E1.38 F2100
M204 S800
;TYPE:Perimeter
;WIDTH:0.419999
G1 F1200
G1 X53.677 Y141.412 E.04501
G1 X53.944 Y139.767 E.04598
G1 X54.107 Y138.945 E.02313
G1 X54.494 Y137.296 E.04671
G1 X54.954 Y135.67 E.04662
G1 X55.489 Y134.068 E.04662
G1 X56.098 Y132.491 E.04662
G1 X56.778 Y130.944 E.04662
G1 X57.528 Y129.43 E.04662
G1 X58.348 Y127.953 E.04662
G1 X59.249 Y126.492 E.04735
G1 X60.188 Y125.115 E.04599
G1 X60.684 Y124.439 E.02312
G1 X61.732 Y123.11 E.04671
G1 X62.838 Y121.832 E.04662
G1 X64.002 Y120.607 E.04662
G1 X65.22 Y119.436 E.04662
G1 X66.491 Y118.323 E.04662
G1 X67.813 Y117.269 E.04662
G1 X69.181 Y116.278 E.04662
G1 X70.593 Y115.35 E.04662
G1 X72.047 Y114.488 E.04662
G1 X73.538 Y113.694 E.04662
G1 X75.068 Y112.969 E.04671
G1 X75.837 Y112.636 E.02312
G1 X77.413 Y112.017 E.04671
G1 X79.038 Y111.465 E.04735
G1 X80.639 Y111.002 E.04599
G1 X81.452 Y110.796 E.02313
G1 X83.107 Y110.439 E.04671
G1 X84.773 Y110.158 E.04662
G1 X86.451 Y109.954 E.04662
G1 X88.139 Y109.828 E.04671
G1 X88.978 Y109.794 E.02316
G1 X90.233 Y109.782 E.03463
G1 X91.517 Y109.809 E.03542
G1 X92.355 Y109.852 E.02315
G1 X94.042 Y109.998 E.04671
G1 X95.717 Y110.221 E.04662
G1 X97.379 Y110.521 E.04662
G1 X99.03 Y110.898 E.04671
G1 X99.841 Y111.112 E.02313
G1 X101.436 Y111.594 E.04598
G1 X103.055 Y112.165 E.04735
G1 X104.62 Y112.8 E.04662
G1 X106.155 Y113.507 E.04662
G1 X107.656 Y114.283 E.04662
G1 X109.119 Y115.128 E.04662
G1 X110.542 Y116.04 E.04662
G1 X111.924 Y117.017 E.04671
G1 X112.592 Y117.525 E.02313
G1 X113.883 Y118.579 E.04599
G1 X115.162 Y119.724 E.04735
G1 X116.367 Y120.908 E.04662
G1 X117.516 Y122.147 E.04662
G1 X118.607 Y123.437 E.04661
G1 X119.653 Y124.797 E.04735
G1 X120.607 Y126.164 E.04599
G1 X121.064 Y126.867 E.02313
G1 X121.935 Y128.319 E.04671
G1 X122.738 Y129.806 E.04662
G1 X123.471 Y131.328 E.04662
G1 X124.133 Y132.883 E.04662
G1 X124.723 Y134.466 E.04662
G1 X125.24 Y136.075 E.04662
G1 X125.682 Y137.706 E.04662
G1 X126.053 Y139.381 E.04735
G1 X126.339 Y141.023 E.04599
G1 X126.455 Y141.853 E.02313
G1 X126.63 Y143.538 E.04671
G1 X126.729 Y145.389 E.05116
G1 X126.746 Y146.914 E.04207
G1 X126.688 Y148.603 E.04662
G1 X126.552 Y150.287 E.04662
G1 X126.339 Y151.963 E.04662
G1 X126.048 Y153.628 E.04662
G1 X125.681 Y155.281 E.04671
G1 X125.471 Y156.092 E.02313
G1 X124.991 Y157.716 E.04671
G1 X124.437 Y159.312 E.04662
G1 X123.811 Y160.882 E.04662
G1 X123.113 Y162.421 E.04662
G1 X122.332 Y163.949 E.04735
G1 X121.507 Y165.397 E.04599
G1 X121.067 Y166.111 E.02313
G1 X120.129 Y167.52 E.04671
G1 X119.13 Y168.883 E.04662
G1 X118.069 Y170.198 E.04662
G1 X116.948 Y171.463 E.04662
G1 X115.771 Y172.675 E.04662
G1 X114.539 Y173.831 E.04662
G1 X113.255 Y174.929 E.04662
G1 X111.922 Y175.968 E.04662
G1 X110.539 Y176.946 E.04671
G1 X109.839 Y177.406 E.02313
G1 X108.392 Y178.286 E.04671
G1 X106.91 Y179.097 E.04662
G1 X105.392 Y179.839 E.04662
G1 X103.841 Y180.51 E.04662
G1 X102.258 Y181.11 E.04671
G1 X101.464 Y181.38 E.02313
G1 X99.844 Y181.87 E.04671
G1 X98.205 Y182.284 E.04662
G1 X96.55 Y182.622 E.04662
G1 X94.88 Y182.883 E.04662
G1 X93.201 Y183.068 E.04662
G1 X91.514 Y183.175 E.04662
G1 X89.825 Y183.204 E.04662
G1 X88.136 Y183.155 E.04662
G1 X86.451 Y183.029 E.04662
G1 X84.773 Y182.825 E.04662
G1 X83.107 Y182.545 E.04662
G1 X81.452 Y182.187 E.04671
G1 X80.639 Y181.982 E.02312
G1 X79.013 Y181.51 E.04671
G1 X77.413 Y180.966 E.04662
G1 X75.837 Y180.348 E.04671
G1 X75.067 Y180.014 E.02315
G1 X73.918 Y179.474 E.03503
G1 X72.786 Y178.899 E.03502
G1 X72.05 Y178.497 E.02316
G1 X70.593 Y177.633 E.04671
G1 X69.181 Y176.706 E.04662
G1 X67.813 Y175.714 E.04662
G1 X66.491 Y174.66 E.04662
G1 X65.22 Y173.547 E.04662
G1 X64.002 Y172.377 E.04662
G1 X62.838 Y171.151 E.04662
G1 X61.732 Y169.874 E.04662
G1 X60.684 Y168.544 E.04671
G1 X60.188 Y167.868 E.02313
G1 X59.249 Y166.491 E.04598
G1 X58.348 Y165.03 E.04735
G1 X57.528 Y163.553 E.04662
G1 X56.778 Y162.039 E.04662
G1 X56.098 Y160.492 E.04662
G1 X55.489 Y158.916 E.04662
G1 X54.954 Y157.313 E.04662
G1 X54.494 Y155.687 E.04661
G1 X54.103 Y154.016 E.04735
G1 X53.798 Y152.377 E.04599
G1 X53.673 Y151.549 E.02312
G1 X53.479 Y149.867 E.04671
G1 X53.362 Y148.181 E.04662
G1 X53.323 Y146.492 E.04662
G1 X53.362 Y144.802 E.04662
G1 X53.482 Y143.092 E.04729
M204 S1000
G1 X53.114 Y142.989 F10800
M204 S800
;TYPE:External perimeter
G1 F1200
G1 X53.303 Y141.36 E.04525
G1 X53.573 Y139.7 E.0464
G1 X53.739 Y138.865 E.02349
G1 X54.128 Y137.202 E.04713
G1 X54.594 Y135.559 E.0471
G1 X55.134 Y133.94 E.0471
G1 X55.749 Y132.347 E.0471
M73 P0 R231
G1 X56.436 Y130.784 E.0471
G1 X57.194 Y129.255 E.04709
G1 X58.022 Y127.762 E.0471
G1 X58.933 Y126.287 E.04783
G1 X59.88 Y124.897 E.0464
G1 X60.384 Y124.211 E.02348
G1 X61.441 Y122.869 E.04713
G1 X62.559 Y121.579 E.0471
G1 X63.734 Y120.341 E.0471
G1 X64.965 Y119.158 E.0471
G1 X66.25 Y118.033 E.0471
G1 X67.584 Y116.969 E.0471
G1 X68.967 Y115.967 E.0471
G1 X70.393 Y115.03 E.0471
G1 X71.862 Y114.16 E.0471
G1 X73.369 Y113.357 E.0471
G1 X74.912 Y112.625 E.04713
G1 X75.693 Y112.287 E.02348
G1 X77.284 Y111.663 E.04713
G1 X78.925 Y111.105 E.04783
G1 X80.541 Y110.638 E.0464
G1 X81.366 Y110.429 E.02348
G1 X83.036 Y110.068 E.04713
G1 X84.719 Y109.785 E.0471
G1 X86.414 Y109.579 E.0471
G1 X88.117 Y109.451 E.04713
G1 X88.968 Y109.417 E.0235
G1 X90.235 Y109.405 E.03495
G1 X91.53 Y109.432 E.03574
G1 X92.381 Y109.476 E.02349
G1 X94.083 Y109.623 E.04713
G1 X95.775 Y109.848 E.0471
G1 X97.455 Y110.151 E.0471
G1 X99.12 Y110.531 E.04713
G1 X99.943 Y110.749 E.02348
G1 X101.553 Y111.236 E.0464
G1 X103.188 Y111.812 E.04783
G1 X104.77 Y112.454 E.0471
G1 X106.321 Y113.168 E.0471
G1 X107.837 Y113.953 E.0471
G1 X109.315 Y114.806 E.0471
G1 X110.753 Y115.727 E.0471
G1 X112.147 Y116.713 E.04713
G1 X112.825 Y117.229 E.02348
G1 X114.128 Y118.292 E.0464
G1 X115.42 Y119.448 E.04783
G1 X116.637 Y120.645 E.0471
G1 X117.798 Y121.896 E.0471
G1 X118.9 Y123.2 E.0471
G1 X119.957 Y124.574 E.04783
G1 X120.92 Y125.953 E.0464
G1 X121.383 Y126.667 E.02348
G1 X122.263 Y128.132 E.04713
G1 X123.074 Y129.634 E.0471
G1 X123.814 Y131.172 E.04709
G1 X124.484 Y132.743 E.0471
M73 Q0 S232
G1 X125.08 Y134.342 E.0471
G1 X125.602 Y135.968 E.0471
G1 X126.048 Y137.615 E.0471
G1 X126.423 Y139.308 E.04783
G1 X126.712 Y140.965 E.0464
G1 X126.829 Y141.808 E.02349
G1 X127.006 Y143.507 E.04713
G1 X127.106 Y145.385 E.05188
G1 X127.123 Y146.918 E.04231
G1 X127.065 Y148.625 E.0471
G1 X126.927 Y150.326 E.0471
G1 X126.712 Y152.02 E.0471
G1 X126.418 Y153.701 E.0471
G1 X126.048 Y155.369 E.04713
G1 X125.835 Y156.193 E.02349
G1 X125.35 Y157.831 E.04713
G1 X124.791 Y159.444 E.0471
G1 X124.158 Y161.03 E.0471
G1 X123.453 Y162.584 E.0471
G1 X122.664 Y164.128 E.04783
G1 X121.831 Y165.589 E.0464
G1 X121.385 Y166.314 E.02349
G1 X120.439 Y167.736 E.04713
G1 X119.429 Y169.113 E.0471
G1 X118.357 Y170.441 E.0471
G1 X117.225 Y171.719 E.0471
G1 X116.035 Y172.944 E.0471
G1 X114.791 Y174.112 E.0471
G1 X113.493 Y175.222 E.0471
G1 X112.147 Y176.271 E.0471
G1 X110.752 Y177.257 E.04713
G1 X110.04 Y177.724 E.02348
G1 X108.581 Y178.612 E.04713
G1 X107.083 Y179.432 E.0471
G1 X105.549 Y180.181 E.0471
G1 X103.983 Y180.859 E.0471
G1 X102.386 Y181.465 E.04713
G1 X101.58 Y181.739 E.02349
G1 X99.944 Y182.234 E.04713
G1 X98.289 Y182.652 E.0471
G1 X96.617 Y182.993 E.0471
G1 X94.93 Y183.257 E.0471
G1 X93.233 Y183.444 E.0471
G1 X91.529 Y183.551 E.0471
G1 X89.823 Y183.581 E.0471
G1 X88.116 Y183.532 E.0471
G1 X86.414 Y183.404 E.0471
G1 X84.719 Y183.198 E.0471
G1 X83.036 Y182.915 E.0471
G1 X81.366 Y182.554 E.04713
G1 X80.541 Y182.346 E.02348
G1 X78.9 Y181.87 E.04713
G1 X77.284 Y181.32 E.0471
G1 X75.693 Y180.696 E.04713
G1 X74.912 Y180.358 E.02349
G1 X73.752 Y179.813 E.03535
G1 X72.61 Y179.233 E.03534
G1 X71.863 Y178.824 E.02349
G1 X70.393 Y177.953 E.04713
G1 X68.966 Y177.016 E.0471
G1 X67.584 Y176.014 E.04709
G1 X66.25 Y174.95 E.0471
G1 X64.965 Y173.825 E.0471
G1 X63.734 Y172.643 E.0471
G1 X62.559 Y171.405 E.0471
G1 X61.441 Y170.114 E.0471
G1 X60.384 Y168.772 E.04713
G1 X59.88 Y168.086 E.02349
G1 X58.933 Y166.696 E.0464
G1 X58.022 Y165.221 E.04783
G1 X57.194 Y163.728 E.0471
G1 X56.436 Y162.199 E.0471
G1 X55.749 Y160.636 E.0471
G1 X55.134 Y159.043 E.0471
G1 X54.594 Y157.424 E.0471
G1 X54.128 Y155.782 E.04709
G1 X53.734 Y154.094 E.04783
G1 X53.426 Y152.44 E.0464
G1 X53.299 Y151.598 E.02348
G1 X53.103 Y149.901 E.04713
G1 X52.985 Y148.198 E.0471
G1 X52.946 Y146.492 E.0471
G1 X52.985 Y144.785 E.0471
G1 X53.107 Y143.049 E.04802
M204 S1000
G1 X53.477 Y142.822 F10800
;WIPE_START
G1 F8640
G1 X53.303 Y141.36 E-.39257
G1 X53.573 Y139.7 E-.38835
G1 X53.739 Y138.865 E-.19656
G1 X54.087 Y137.378 E-.35252
;WIPE_END
G1 E-.07 F2100
G1 Z.6 F720
G1 X112.83 Y138.978 F10800
G1 Z.4 F720
G1 E1.38 F2100
M204 S800
;TYPE:Perimeter
G1 F1200
G1 X111.766 Y138.602 E.03114
G1 X111.068 Y138.239 E.02171
G1 X110.415 Y137.797 E.02176
G1 X109.758 Y137.225 E.02402
G1 X109.037 Y136.39 E.03045
G1 X108.615 Y135.743 E.02131
G1 X108.225 Y134.948 E.02441
G1 X107.886 Y133.897 E.03047
G1 X107.747 Y133.124 E.02169
G1 X107.704 Y132.439 E.01893
G1 X107.74 Y131.548 E.02459
G1 X107.925 Y130.603 E.02659
G1 X108.079 Y130.068 E.01535
G1 X108.25 Y129.597 E.0138
G1 X108.622 Y128.889 E.02209
G1 X108.92 Y128.393 E.01596
G1 X109.291 Y127.892 E.01718
G1 X110.052 Y127.11 E.03012
G1 X110.682 Y126.617 E.02207
G1 X111.768 Y126.004 E.03442
G1 X112.443 Y125.741 E.01998
G1 X113.205 Y125.537 E.02177
G1 X114.364 Y125.398 E.0322
G1 X115.169 Y125.415 E.0222
G1 X116.029 Y125.541 E.02399
G1 X117.162 Y125.883 E.03264
G1 X118.22 Y126.412 E.03266
G1 X119.112 Y127.063 E.03044
G1 X119.68 Y127.607 E.02171
G1 X120.182 Y128.216 E.02176
G1 X120.832 Y129.299 E.03486
G1 X121.226 Y130.311 E.02997
G1 X121.414 Y131.094 E.0222
G1 X121.511 Y131.959 E.02402
G1 X121.478 Y133.062 E.03045
G1 X121.348 Y133.838 E.02171
G1 X121.143 Y134.552 E.02049
G1 X120.826 Y135.325 E.02303
G1 X120.441 Y136.013 E.02177
G1 X119.733 Y136.941 E.0322
G1 X119.111 Y137.548 E.02398
G1 X118.537 Y137.991 E.01999
G1 X117.864 Y138.401 E.02176
G1 X117.147 Y138.733 E.02179
G1 X116.401 Y138.979 E.02167
G1 X115.625 Y139.14 E.02186
G1 X114.839 Y139.212 E.02177
G1 X114.05 Y139.193 E.02177
G1 X112.887 Y138.997 E.03255
M204 S1000
G1 X112.989 Y138.632 F10800
M204 S800
;TYPE:External perimeter
G1 F1200
G1 X111.893 Y138.247 E.03204
G1 X111.244 Y137.906 E.02024
G1 X110.628 Y137.486 E.02058
G1 X110.044 Y136.979 E.02134
G1 X109.322 Y136.143 E.03045
G1 X108.932 Y135.539 E.01984
G1 X108.584 Y134.833 E.02173
G1 X108.245 Y133.782 E.03046
G1 X108.118 Y133.06 E.02023
G1 X108.081 Y132.417 E.01775
G1 X108.116 Y131.57 E.0234
G1 X108.295 Y130.678 E.02511
G1 X108.435 Y130.195 E.01387
G1 X108.617 Y129.706 E.01438
G1 X109.104 Y128.785 E.02875
G1 X109.561 Y128.155 E.02146
G1 X110.32 Y127.375 E.03002
G1 X110.912 Y126.916 E.02068
G1 X111.905 Y126.355 E.03146
G1 X112.58 Y126.092 E.01998
G1 X113.301 Y125.902 E.02058
G1 X114.407 Y125.773 E.03072
G1 X115.158 Y125.792 E.02072
G1 X115.923 Y125.903 E.02133
G1 X116.996 Y126.221 E.03086
G1 X117.998 Y126.717 E.03086
G1 X118.89 Y127.367 E.03044
G1 X119.417 Y127.878 E.02024
G1 X119.89 Y128.454 E.02058
G1 X120.481 Y129.436 E.0316
G1 X120.875 Y130.448 E.02997
G1 X121.047 Y131.179 E.02072
G1 X121.134 Y131.948 E.02133
G1 X121.101 Y133.051 E.03045
G1 X120.977 Y133.774 E.02024
G1 X120.781 Y134.446 E.01931
G1 X120.479 Y135.178 E.02184
G1 X120.113 Y135.828 E.02059
G1 X119.759 Y136.29 E.01605
G1 X119.434 Y136.711 E.01466
G1 X118.897 Y137.236 E.02072
G1 X118.373 Y137.641 E.01827
G1 X117.669 Y138.079 E.02288
G1 X116.99 Y138.39 E.0206
G1 X116.284 Y138.62 E.02049
G1 X115.55 Y138.771 E.02068
G1 X114.807 Y138.836 E.02058
G1 X114.061 Y138.816 E.02059
G1 X113.048 Y138.642 E.02835
M204 S1000
G1 X112.706 Y138.914 F10800
;WIPE_START
G1 F8640
G1 X111.893 Y138.247 E-.28185
G1 X111.244 Y137.906 E-.16938
G1 X110.628 Y137.486 E-.17225
G1 X110.044 Y136.979 E-.17856
G1 X109.322 Y136.143 E-.25487
G1 X108.932 Y135.539 E-.16604
G1 X108.727 Y135.123 E-.10705
;WIPE_END
G1 E-.07 F2100
G1 Z.6 F720
G1 X120.81 Y157.639 F10800
G1 Z.4 F720
G1 E1.38 F2100
M204 S800
;TYPE:Perimeter
