; generated by PrusaSlicer 2.6.0-alpha2+win64 on 2023-02-25 at 17:11:46 UTC

; 

; external perimeters extrusion width = 0.45mm
; perimeters extrusion width = 0.45mm
; infill extrusion width = 0.45mm
; solid infill extrusion width = 0.45mm
; top infill extrusion width = 0.40mm
; support material extrusion width = 0.35mm
; first layer extrusion width = 0.42mm

; external perimeters extrusion width = 0.45mm
; perimeters extrusion width = 0.45mm
; infill extrusion width = 0.45mm
; solid infill extrusion width = 0.45mm
; top infill extrusion width = 0.40mm
; support material extrusion width = 0.35mm
; first layer extrusion width = 0.42mm

; external perimeters extrusion width = 0.45mm
; perimeters extrusion width = 0.45mm
; infill extrusion width = 0.45mm
; solid infill extrusion width = 0.45mm
; top infill extrusion width = 0.40mm
; support material extrusion width = 0.35mm
; first layer extrusion width = 0.42mm

M73 P0 R250
M73 Q0 S251
M107
;TYPE:Custom
M862.3 P "MK3S" ; printer model check
M862.1 P0.4 ; nozzle diameter check
M115 U3.9.3 ; tell printer latest fw version
G90 ; use absolute coordinates
M83 ; extruder relative mode
M104 S245 ; set extruder temp
M140 S85 ; set bed temp
M190 S85 ; wait for bed temp
M109 S245 ; wait for extruder temp
G28 W ; home all without mesh bed level
G80 ; mesh bed leveling
G1 Y-3.0 F1000.0 ; go outside print area
G92 E0.0
G1 X60.0 E9.0 F1000.0 ; intro line
G1 X100.0 E12.5 F1000.0 ; intro line
G92 E0.0
M221 S95

; Don't change E values below. Excessive value can damage the printer.

G21 ; set units to millimeters
G90 ; use absolute coordinates
M83 ; use relative distances for extrusion
M900 K0.08 ; Filament gcode LA 1.5
M900 K45 ; Filament gcode LA 1.0
M107
;LAYER_CHANGE
;Z:0.2
;HEIGHT:0.2
;BEFORE_LAYER_CHANGE
G92 E0.0
;0.2


G1 E-1.4 F2100
G1 Z.4 F720
;AFTER_LAYER_CHANGE
;0.2
G1 Z.6
G1 X57.671 Y38.343 F10800
G1 Z.4 F720
G1 E1.38 F2100
M204 S800
;TYPE:Skirt/Brim
;WIDTH:0.42
G1 F600
G1 X59.908 Y35.366 E.10274
G1 X62.375 Y32.649 E.10125
G1 X65.104 Y30.152 E.10205
G1 X67.21 Y28.512 E.07364
G1 X68.72 Y27.468 E.05065
G1 X71.875 Y25.595 E.10123
G1 X75.24 Y23.998 E.10276
G1 X78.77 Y22.714 E.10363
G1 X81.287 Y22.018 E.07205
G1 X83.081 Y21.629 E.05064
G1 X86.767 Y21.095 E.10275
G1 X88.597 Y20.959 E.05063
G1 X91.151 Y20.912 E.07047
G1 X94.099 Y21.058 E.08143
G1 X97.736 Y21.545 E.10124
G1 X101.313 Y22.364 E.10124
G1 X104.8 Y23.508 E.10125
G1 X108.167 Y24.968 E.10125
G1 X111.385 Y26.732 E.10125
G1 X114.384 Y28.751 E.09974
G1 X117.228 Y31.07 E.10124
G1 X119.215 Y32.976 E.07596
G1 X121.089 Y35.042 E.07695
G1 X162.925 Y84.923 E1.79612
G1 X163.481 Y86.45 E.04483
G1 X163.481 Y120.022 E.92622
G1 X162.927 Y121.548 E.04479
G1 X120.493 Y172.232 E1.82369
G1 X118.655 Y174.261 E.07553
G1 X116.671 Y176.169 E.07594
G1 X113.83 Y178.492 E.10125
G1 X110.787 Y180.544 E.10126
G1 X107.52 Y182.331 E.10274
G1 X104.151 Y183.787 E.10126
G1 X100.663 Y184.927 E.10124
G1 X97.084 Y185.741 E.10126
G1 X93.446 Y186.222 E.10124
G1 X89.779 Y186.368 E.10125
G1 X86.169 Y186.181 E.09973
G1 X83.386 Y185.81 E.07746
G1 X79.852 Y185.046 E.09975
G1 X77.217 Y184.252 E.07593
G1 X74.592 Y183.256 E.07746
G1 X72.092 Y182.103 E.07595
G1 X68.941 Y180.332 E.09972
G1 X66.612 Y178.764 E.07746
G1 X63.785 Y176.51 E.09975
G1 X61.777 Y174.627 E.07595
G1 X59.867 Y172.569 E.07746
G1 X57.63 Y169.73 E.09972
G1 X56.075 Y167.392 E.07747
G1 X54.322 Y164.23 E.09975
G1 X53.162 Y161.674 E.07744
G1 X51.939 Y158.272 E.09974
G1 X51.204 Y155.562 E.07747
G1 X50.671 Y152.861 E.07595
G1 X50.325 Y150.13 E.07595
G1 X50.169 Y147.382 E.07594
G1 X50.757 Y60.767 E2.38967
G1 X50.929 Y57.091 E.10153
M73 P0 R249
M73 Q0 S250
G1 X51.162 Y55.125 E.05462
G1 X51.604 Y52.61 E.07045
G1 X52.537 Y49.004 E.10276
G1 X53.781 Y45.552 E.10123
G1 X55.351 Y42.203 E.10204
G1 X56.673 Y39.884 E.07364
G1 X57.638 Y38.394 E.04898
M204 S1000
; printing object LightHolder Top id:0 copy 0
;WIPE_START
G1 F8640
G1 X59.908 Y35.366 E-.87383
G1 X61.44 Y33.679 E-.52617
;WIPE_END
G1 Z.6 F720
G1 X115.162 Y119.723 F10800
G1 Z.4 F720
G1 E1.4 F2100
M204 S800
;TYPE:Perimeter
;WIDTH:0.419999
G1 F600
G1 X116.367 Y120.908 E.04663
G1 X117.516 Y122.147 E.04662
G1 X118.607 Y123.437 E.04661
G1 X119.638 Y124.776 E.04662
G1 X120.607 Y126.164 E.0467
G1 X121.064 Y126.867 E.02313
G1 X121.935 Y128.318 E.04669
G1 X122.738 Y129.806 E.04665
G1 X123.471 Y131.328 E.04661
G1 X124.133 Y132.883 E.04663
G1 X124.723 Y134.466 E.04661
G1 X125.24 Y136.075 E.04663
G1 X125.682 Y137.706 E.04662
G1 X126.048 Y139.355 E.0466
G1 X126.339 Y141.02 E.04663
G1 X126.552 Y142.696 E.04661
G1 X126.688 Y144.38 E.04661
G1 X126.746 Y146.205 E.05038
G1 X126.746 Y146.911 E.01948
G1 X126.688 Y148.603 E.04671
G1 X126.552 Y150.287 E.04661
G1 X126.339 Y151.963 E.04661
G1 X126.048 Y153.628 E.04663
G1 X125.681 Y155.281 E.04671
G1 X125.471 Y156.092 E.02311
G1 X124.991 Y157.716 E.04672
G1 X124.437 Y159.312 E.04661
G1 X123.811 Y160.882 E.04663
G1 X123.113 Y162.421 E.04662
G1 X122.345 Y163.926 E.04662
G1 X121.509 Y165.394 E.04661
G1 X120.605 Y166.822 E.04663
G1 X119.638 Y168.207 E.0466
G1 X118.606 Y169.547 E.04666
G1 X117.792 Y170.517 E.03494
G1 X116.949 Y171.462 E.03494
G1 X115.771 Y172.675 E.04665
G1 X114.539 Y173.831 E.04661
G1 X113.255 Y174.929 E.04661
G1 X111.922 Y175.968 E.04663
G1 X110.54 Y176.945 E.04669
G1 X109.817 Y177.42 E.02387
G1 X108.392 Y178.286 E.046
G1 X106.91 Y179.097 E.04661
G1 X105.392 Y179.839 E.04662
G1 X103.841 Y180.51 E.04662
G1 X102.258 Y181.11 E.04671
G1 X101.464 Y181.38 E.02314
G1 X99.844 Y181.87 E.04669
G1 X98.205 Y182.284 E.04664
G1 X96.55 Y182.622 E.0466
G1 X94.88 Y182.883 E.04663
G1 X93.201 Y183.068 E.0466
G1 X91.514 Y183.175 E.04664
G1 X89.825 Y183.204 E.0466
G1 X88.136 Y183.155 E.04662
G1 X86.451 Y183.029 E.04662
G1 X84.773 Y182.825 E.04664
G1 X83.107 Y182.545 E.04661
G1 X81.452 Y182.187 E.04672
G1 X80.639 Y181.982 E.02313
G1 X79.013 Y181.51 E.04671
G1 X77.413 Y180.966 E.04662
G1 X75.84 Y180.349 E.04662
G1 X74.294 Y179.658 E.04672
G1 X73.541 Y179.29 E.02312
G1 X72.047 Y178.495 E.04669
G1 X70.593 Y177.633 E.04663
G1 X69.181 Y176.706 E.0466
G1 X67.813 Y175.714 E.04662
G1 X66.491 Y174.66 E.04665
G1 X65.22 Y173.547 E.04661
G1 X64.002 Y172.377 E.0466
G1 X62.838 Y171.151 E.04664
G1 X61.73 Y169.871 E.04671
G1 X61.204 Y169.219 E.02311
G1 X60.202 Y167.886 E.04601
G1 X59.235 Y166.469 E.04733
G1 X58.348 Y165.031 E.04661
G1 X57.528 Y163.553 E.04663
G1 X56.778 Y162.039 E.04661
G1 X56.098 Y160.492 E.04662
G1 X55.489 Y158.916 E.04661
G1 X54.954 Y157.313 E.04662
G1 X54.494 Y155.687 E.04662
G1 X54.108 Y154.042 E.04662
G1 X53.798 Y152.378 E.0467
G1 X53.67 Y151.523 E.02385
G1 X53.479 Y149.867 E.04599
G1 X53.362 Y148.181 E.04663
G1 X53.323 Y146.492 E.04661
G1 X53.362 Y144.802 E.04664
G1 X53.479 Y143.117 E.0466
G1 X53.677 Y141.412 E.04736
G1 X53.944 Y139.767 E.04598
G1 X54.107 Y138.945 E.02312
G1 X54.494 Y137.296 E.04673
G1 X54.954 Y135.67 E.04662
G1 X55.489 Y134.068 E.0466
G1 X56.098 Y132.491 E.04664
G1 X56.778 Y130.944 E.04662
G1 X57.528 Y129.43 E.04661
G1 X58.348 Y127.953 E.04661
G1 X59.249 Y126.492 E.04736
G1 X60.188 Y125.115 E.04598
G1 X60.684 Y124.439 E.02313
G1 X61.732 Y123.11 E.04669
G1 X62.838 Y121.832 E.04663
G1 X64.002 Y120.607 E.04662
G1 X65.22 Y119.436 E.04661
G1 X66.491 Y118.323 E.04661
G1 X67.813 Y117.269 E.04665
G1 X69.181 Y116.278 E.0466
G1 X70.593 Y115.35 E.04662
G1 X72.047 Y114.488 E.04663
G1 X73.538 Y113.694 E.0466
G1 X75.068 Y112.969 E.04671
G1 X75.837 Y112.636 E.02312
G1 X77.413 Y112.017 E.04671
G1 X79.038 Y111.465 E.04735
G1 X80.639 Y111.002 E.04598
G1 X81.452 Y110.796 E.02314
G1 X83.107 Y110.439 E.04671
G1 X84.773 Y110.158 E.04661
G1 X86.451 Y109.954 E.04664
G1 X88.139 Y109.828 E.0467
G1 X88.978 Y109.794 E.02317
G1 X90.233 Y109.782 E.03463
G1 X91.517 Y109.809 E.03543
G1 X92.355 Y109.852 E.02315
G1 X94.041 Y109.998 E.04669
G1 X95.717 Y110.221 E.04665
G1 X97.38 Y110.521 E.04662
G1 X99.03 Y110.898 E.04669
G1 X99.84 Y111.112 E.02311
G1 X101.461 Y111.602 E.04672
G1 X103.055 Y112.165 E.04664
G1 X104.62 Y112.8 E.0466
G1 X106.155 Y113.507 E.04663
G1 X107.656 Y114.283 E.04662
G1 X109.119 Y115.128 E.04661
G1 X110.542 Y116.04 E.04663
G1 X111.924 Y117.017 E.04669
G1 X112.592 Y117.525 E.02315
G1 X113.883 Y118.579 E.04598
G1 X115.117 Y119.683 E.04568
M204 S1000
G1 X115.42 Y119.448 F10800
M204 S800
;TYPE:External perimeter
G1 F600
G1 X116.637 Y120.645 E.04709
G1 X117.798 Y121.896 E.04709
G1 X118.901 Y123.2 E.04712
G1 X119.942 Y124.553 E.0471
G1 X120.92 Y125.953 E.04712
G1 X121.383 Y126.667 E.02348
G1 X122.263 Y128.132 E.04715
G1 X123.074 Y129.634 E.04709
G1 X123.814 Y131.172 E.04709
G1 X124.483 Y132.743 E.04711
G1 X125.08 Y134.342 E.04709
G1 X125.602 Y135.968 E.04711
G1 X126.048 Y137.615 E.04708
G1 X126.418 Y139.282 E.04711
G1 X126.712 Y140.964 E.04711
G1 X126.927 Y142.657 E.04708
G1 X127.065 Y144.359 E.04711
G1 X127.124 Y146.205 E.05096
G1 X127.124 Y146.917 E.01964
G1 X127.065 Y148.625 E.04715
G1 X126.927 Y150.326 E.04708
G1 X126.712 Y152.02 E.04711
G1 X126.418 Y153.701 E.04708
G1 X126.048 Y155.369 E.04714
G1 X125.835 Y156.193 E.02348
G1 X125.35 Y157.831 E.04713
G1 X124.791 Y159.444 E.0471
G1 X124.158 Y161.03 E.04711
G1 X123.453 Y162.584 E.04708
G1 X122.677 Y164.105 E.04711
G1 X121.832 Y165.588 E.04709
G1 X120.92 Y167.031 E.0471
G1 X119.942 Y168.43 E.04709
G1 X118.9 Y169.784 E.04714
G1 X118.078 Y170.764 E.03529
G1 X117.225 Y171.719 E.03533
G1 X116.035 Y172.944 E.04712
G1 X114.791 Y174.112 E.04708
G1 X113.493 Y175.222 E.04712
G1 X112.147 Y176.271 E.04708
G1 X110.752 Y177.257 E.04713
G1 X110.018 Y177.738 E.02421
G1 X108.581 Y178.612 E.0464
G1 X107.083 Y179.432 E.04711
G1 X105.549 Y180.181 E.0471
G1 X103.983 Y180.859 E.04708
G1 X102.386 Y181.465 E.04712
G1 X101.58 Y181.739 E.02349
G1 X99.944 Y182.234 E.04716
G1 X98.289 Y182.652 E.04709
G1 X96.617 Y182.993 E.04708
G1 X94.93 Y183.257 E.04711
G1 X93.233 Y183.444 E.0471
G1 X91.529 Y183.551 E.0471
G1 X89.823 Y183.581 E.04707
G1 X88.116 Y183.532 E.04711
G1 X86.414 Y183.404 E.04709
G1 X84.719 Y183.198 E.04711
G1 X83.036 Y182.915 E.04708
G1 X81.366 Y182.554 E.04714
G1 X80.541 Y182.346 E.02347
G1 X78.9 Y181.87 E.04714
G1 X77.284 Y181.32 E.0471
G1 X75.695 Y180.697 E.04709
G1 X74.135 Y180 E.04714
G1 X73.37 Y179.626 E.02349
G1 X71.862 Y178.824 E.04712
G1 X70.393 Y177.953 E.04712
G1 X68.967 Y177.016 E.04707
G1 X67.584 Y176.014 E.04712
G1 X66.25 Y174.95 E.04708
G1 X64.965 Y173.825 E.04712
G1 X63.734 Y172.643 E.04708
G1 X62.559 Y171.405 E.04709
G1 X61.441 Y170.113 E.04714
G1 X60.906 Y169.451 E.02348
G1 X59.895 Y168.106 E.04642
G1 X58.918 Y166.674 E.04783
G1 X58.022 Y165.221 E.0471
G1 X57.195 Y163.728 E.04709
G1 X56.436 Y162.199 E.04709
G1 X55.749 Y160.636 E.0471
G1 X55.134 Y159.043 E.04711
G1 X54.594 Y157.424 E.04709
G1 X54.128 Y155.782 E.04709
G1 X53.739 Y154.12 E.04709
G1 X53.426 Y152.44 E.04715
G1 X53.296 Y151.572 E.02421
G1 X53.103 Y149.901 E.04641
G1 X52.985 Y148.198 E.0471
G1 X52.946 Y146.492 E.04708
G1 X52.985 Y144.785 E.04711
G1 X53.103 Y143.082 E.0471
G1 X53.303 Y141.36 E.04783
G1 X53.573 Y139.7 E.0464
G1 X53.739 Y138.865 E.02349
G1 X54.128 Y137.202 E.04712
G1 X54.594 Y135.559 E.04712
G1 X55.134 Y133.94 E.04709
G1 X55.749 Y132.347 E.04711
G1 X56.436 Y130.784 E.0471
G1 X57.194 Y129.255 E.04708
G1 X58.022 Y127.762 E.0471
G1 X58.933 Y126.287 E.04783
G1 X59.881 Y124.897 E.04642
G1 X60.384 Y124.211 E.02347
G1 X61.441 Y122.869 E.04713
G1 X62.559 Y121.579 E.0471
G1 X63.734 Y120.341 E.04709
G1 X64.965 Y119.158 E.0471
G1 X66.25 Y118.033 E.04712
G1 X67.584 Y116.969 E.04708
G1 X68.967 Y115.967 E.04712
G1 X70.393 Y115.03 E.04707
G1 X71.862 Y114.16 E.0471
G1 X73.369 Y113.357 E.04711
G1 X74.912 Y112.625 E.04712
G1 X75.693 Y112.287 E.02348
G1 X77.284 Y111.663 E.04715
G1 X78.925 Y111.105 E.04782
G1 X80.541 Y110.638 E.04641
G1 X81.366 Y110.429 E.02348
G1 X83.036 Y110.068 E.04714
G1 X84.719 Y109.785 E.04708
G1 X86.414 Y109.579 E.04711
G1 X88.117 Y109.451 E.04712
G1 X88.968 Y109.417 E.0235
G1 X90.235 Y109.405 E.03496
G1 X91.53 Y109.432 E.03574
G1 X92.381 Y109.476 E.02351
G1 X94.083 Y109.623 E.04713
G1 X95.775 Y109.848 E.04709
G1 X97.455 Y110.151 E.0471
G1 X99.12 Y110.531 E.04712
G1 X99.943 Y110.749 E.02349
G1 X101.579 Y111.243 E.04715
G1 X103.188 Y111.812 E.04708
G1 X104.77 Y112.454 E.0471
G1 X106.321 Y113.168 E.04711
G1 X107.837 Y113.953 E.0471
G1 X109.315 Y114.806 E.04708
G1 X110.753 Y115.727 E.04711
G1 X112.148 Y116.713 E.04713
G1 X112.825 Y117.229 E.02348
G1 X114.128 Y118.292 E.04639
G1 X115.375 Y119.408 E.04617
M204 S1000
G1 X115.328 Y119.838 F10800
;WIPE_START
G1 F8640
G1 X116.637 Y120.645 E-.40804
G1 X117.798 Y121.896 E-.39409
G1 X118.901 Y123.2 E-.39437
G1 X119.438 Y123.899 E-.2035
;WIPE_END
G1 Z.6 F720
G1 X109.252 Y136.664 F10800
G1 Z.4 F720
G1 E1.4 F2100
M204 S800
;TYPE:Perimeter
G1 F600
G1 X108.56 Y135.644 E.03401
G1 X108.117 Y134.671 E.0295
G1 X107.885 Y133.901 E.02219
G1 X107.747 Y133.124 E.02177
G1 X107.704 Y132.439 E.01894
G1 X107.74 Y131.548 E.0246
G1 X107.925 Y130.603 E.02657
G1 X108.079 Y130.068 E.01536
G1 X108.253 Y129.591 E.01401
G1 X108.576 Y128.934 E.0202
G1 X108.999 Y128.268 E.02177
G1 X109.496 Y127.655 E.02177
G1 X109.913 Y127.244 E.01615
G1 X110.682 Y126.617 E.02737
G1 X111.768 Y126.004 E.03441
G1 X112.52 Y125.717 E.02221
G1 X113.584 Y125.47 E.03014
G1 X114.461 Y125.395 E.02428
G1 X115.642 Y125.472 E.03265
G1 X116.716 Y125.723 E.03043
G1 X117.452 Y126.004 E.02174
G1 X118.537 Y126.617 E.03438
G1 X119.111 Y127.06 E.02
G1 X119.679 Y127.607 E.02176
G1 X120.182 Y128.216 E.02179
G1 X120.832 Y129.299 E.03485
G1 X121.226 Y130.311 E.02996
G1 X121.414 Y131.094 E.02222
G1 X121.507 Y131.872 E.02162
G1 X121.511 Y132.666 E.02191
G1 X121.41 Y133.53 E.024
G1 X121.132 Y134.586 E.03013
G1 X120.826 Y135.325 E.02207
G1 X120.441 Y136.013 E.02175
G1 X119.733 Y136.941 E.0322
G1 X118.867 Y137.747 E.03264
G1 X118.206 Y138.206 E.0222
G1 X117.51 Y138.577 E.02176
G1 X116.776 Y138.867 E.02177
G1 X115.543 Y139.152 E.03491
G1 X114.833 Y139.212 E.01966
G1 X113.656 Y139.148 E.03252
G1 X112.883 Y138.996 E.02173
G1 X112.132 Y138.756 E.02175
G1 X111.413 Y138.432 E.02176
G1 X110.735 Y138.027 E.02179
G1 X110.621 Y137.942 E.00392
G1 X109.828 Y137.293 E.02827
G1 X109.287 Y136.712 E.0219
M204 S1000
G1 X109.52 Y136.394 F10800
M204 S800
;TYPE:External perimeter
G1 F600
G1 X109.034 Y135.683 E.02376
G1 X108.728 Y135.102 E.01812
G1 X108.46 Y134.515 E.0178
G1 X108.247 Y133.795 E.02072
G1 X108.118 Y133.06 E.02059
G1 X108.081 Y132.417 E.01777
G1 X108.116 Y131.57 E.02339
G1 X108.295 Y130.678 E.0251
G1 X108.435 Y130.195 E.01387
G1 X108.714 Y129.508 E.02046
G1 X109.071 Y128.854 E.02056
G1 X109.503 Y128.242 E.02067
G1 X109.802 Y127.878 E.013
G1 X110.322 Y127.372 E.02002
G1 X110.912 Y126.916 E.02057
G1 X111.905 Y126.355 E.03147
G1 X112.606 Y126.085 E.02072
G1 X113.666 Y125.838 E.03003
G1 X114.439 Y125.772 E.0214
G1 X115.556 Y125.839 E.03087
G1 X116.63 Y126.091 E.03044
G1 X117.314 Y126.355 E.02023
G1 X118.307 Y126.916 E.03147
G1 X118.881 Y127.358 E.01999
G1 X119.417 Y127.878 E.0206
G1 X119.89 Y128.454 E.02056
G1 X120.481 Y129.436 E.03162
G1 X120.875 Y130.448 E.02996
G1 X121.047 Y131.179 E.02072
G1 X121.132 Y131.915 E.02044
G1 X121.134 Y132.666 E.02072
G1 X121.045 Y133.434 E.02133
G1 X120.769 Y134.487 E.03003
G1 X120.479 Y135.178 E.02067
G1 X120.113 Y135.828 E.02058
G1 X119.434 Y136.711 E.03073
G1 X118.612 Y137.469 E.03085
G1 X117.993 Y137.895 E.02073
G1 X117.334 Y138.244 E.02057
G1 X116.639 Y138.516 E.02059
G1 X115.511 Y138.776 E.03194
G1 X114.805 Y138.836 E.01955
G1 X113.678 Y138.771 E.03114
G1 X112.958 Y138.627 E.02026
G1 X112.249 Y138.398 E.02056
G1 X111.569 Y138.089 E.02061
G1 X110.86 Y137.65 E.02301
G1 X110.067 Y137.001 E.02827
G1 X109.554 Y136.444 E.02089
M204 S1000
G1 X109.124 Y136.454 F10800
;WIPE_START
G1 F8640
G1 X109.034 Y135.683 E-.21282
G1 X108.728 Y135.102 E-.15162
G1 X108.46 Y134.515 E-.149
G1 X108.247 Y133.795 E-.17337
G1 X108.118 Y133.06 E-.17231
G1 X108.081 Y132.417 E-.14872
G1 X108.116 Y131.57 E-.19574
G1 X108.283 Y130.736 E-.19642
;WIPE_END
G1 Z.6 F720
G1 X119.957 Y156.306 F10800
G1 Z.4 F720
M73 P0 R248
M73 Q0 S249
G1 E1.4 F2100
M204 S800
;TYPE:Perimeter
G1 F600
G1 X120.406 Y156.915 E.02087
