; generated by PrusaSlicer 2.5.0+win64 on 2023-01-17 at 23:05:22 UTC

; 

; external perimeters extrusion width = 0.45mm
; perimeters extrusion width = 0.45mm
; infill extrusion width = 0.45mm
; solid infill extrusion width = 0.45mm
; top infill extrusion width = 0.40mm
; first layer extrusion width = 0.42mm

M73 P0 R98
M73 Q0 S98
M107
;TYPE:Custom
M862.3 P "MK3S" ; printer model check
M862.1 P0.4 ; nozzle diameter check
M115 U3.9.3 ; tell printer latest fw version
G90 ; use absolute coordinates
M83 ; extruder relative mode
M104 S230 ; set extruder temp
M140 S85 ; set bed temp
M190 S85 ; wait for bed temp
M109 S230 ; wait for extruder temp
G28 W ; home all without mesh bed level
G80 ; mesh bed leveling
G1 Y-3.0 F1000.0 ; go outside print area
G92 E0.0
G1 X60.0 E9.0 F1000.0 ; intro line
G1 X100.0 E12.5 F1000.0 ; intro line
G92 E0.0
M221 S95

; Don't change E values below. Excessive value can damage the printer.

M907 E538 ; set extruder motor current
G21 ; set units to millimeters
G90 ; use absolute coordinates
M83 ; use relative distances for extrusion
M900 K0.08 ; Filament gcode LA 1.5
M900 K45 ; Filament gcode LA 1.0
M107
;LAYER_CHANGE
;Z:0.2
;HEIGHT:0.2
;BEFORE_LAYER_CHANGE
G92 E0.0
;0.2


G1 E-1.4 F2100
G1 Z.4 F720
;AFTER_LAYER_CHANGE
;0.2
G1 Z.6
G1 X83.464 Y48.188 F10800
G1 Z.4 F720
G1 E1.38 F2100
M204 S800
;TYPE:Skirt/Brim
;WIDTH:0.42
G1 F1200
G1 X85.991 Y43.811 E.13942
G1 X86.861 Y42.941 E.03395
G1 X90.325 Y40.941 E.11036
G1 X91.514 Y40.623 E.03395
G1 X158.486 Y40.623 E1.8477
G1 X159.675 Y40.941 E.03395
G1 X163.139 Y42.941 E.11036
G1 X164.009 Y43.811 E.03395
G1 X197.495 Y101.811 E1.8477
G1 X197.814 Y103 E.03395
G1 X197.814 Y107 E.11036
G1 X197.495 Y108.189 E.03395
G1 X164.009 Y166.189 E1.8477
G1 X163.139 Y167.059 E.03395
G1 X159.675 Y169.059 E.11036
G1 X158.486 Y169.377 E.03395
G1 X91.514 Y169.377 E1.8477
G1 X90.325 Y169.059 E.03395
G1 X86.861 Y167.059 E.11036
G1 X85.991 Y166.189 E.03395
G1 X52.505 Y108.189 E1.8477
G1 X52.186 Y107 E.03395
G1 X52.186 Y103 E.11036
G1 X52.505 Y101.811 E.03395
G1 X83.434 Y48.24 E1.70662
M204 S1000
; printing object PaintMask id:0 copy 0
;WIPE_START
G1 F8640
G1 X85.991 Y43.811 E-1.18075
G1 X86.448 Y43.354 E-.14925
;WIPE_END
G1 E-.07 F2100
G1 Z.6 F720
G1 X88.665 Y159.97 F10800
G1 Z.4 F720
G1 E1.38 F2100
M204 S800
;TYPE:Perimeter
;WIDTH:0.419999
G1 F1200
G1 X88.586 Y159.996 E.00228
G1 X87.36 Y160.717 E.03926
G1 X87.056 Y160.947 E.01049
G1 X86.701 Y161.299 E.01381
G1 X86.53 Y160.889 E.01225
G1 X85.982 Y159.846 E.03251
G1 X57.745 Y110.945 E1.5579
G1 X57.425 Y110.451 E.01623
G1 X57.095 Y110.007 E.01527
G1 X57.586 Y109.868 E.01406
G1 X58.097 Y109.641 E.01544
G1 X59.165 Y109.038 E.03383
G1 X59.28 Y108.952 E.00395
G1 X59.393 Y108.798 E.00527
G1 X59.452 Y108.534 E.00747
G1 X59.376 Y108.263 E.00777
G1 X57.493 Y105 E.10393
G1 X59.376 Y101.737 E.10393
G1 X59.408 Y101.673 E.00197
G1 X59.448 Y101.389 E.00792
G1 X59.35 Y101.13 E.00764
G1 X59.165 Y100.962 E.0069
G1 X58.049 Y100.335 E.03532
G1 X57.578 Y100.128 E.0142
G1 X57.095 Y99.993 E.01381
G1 X57.115 Y99.949 E.00134
G1 X57.454 Y99.509 E.01533
G1 X57.74 Y99.063 E.0146
G1 X85.616 Y50.788 E1.53798
G1 X85.99 Y50.14 E.02063
G1 X86.492 Y49.204 E.0293
G1 X86.701 Y48.701 E.01502
G1 X86.901 Y48.921 E.0082
G1 X87.36 Y49.283 E.01612
G1 X88.718 Y50.061 E.04318
G1 X88.908 Y50.081 E.00526
G1 X89.166 Y50.001 E.00746
G1 X89.363 Y49.8 E.00777
G1 X91.246 Y46.537 E.10393
G1 X95.014 Y46.537 E.10393
G1 X95.085 Y46.533 E.00197
G1 X95.351 Y46.425 E.00792
G1 X95.526 Y46.211 E.00764
G1 X95.579 Y45.966 E.0069
G1 X95.565 Y44.686 E.03532
G1 X95.508 Y44.175 E.0142
G1 X95.384 Y43.69 E.01382
G1 X95.814 Y43.737 E.01194
G1 X97.011 Y43.787 E.03307
G1 X152.261 Y43.787 E1.52428
G1 X154.067 Y43.753 E.04983
G1 X154.616 Y43.69 E.01527
M73 P0 R97
G1 X154.491 Y44.184 E.01406
G1 X154.435 Y44.686 E.01395
G1 X154.438 Y46.109 E.03924
G1 X154.515 Y46.283 E.00527
G1 X154.713 Y46.467 E.00746
G1 X154.986 Y46.537 E.00777
G1 X158.754 Y46.537 E.10393
G1 X160.637 Y49.8 E.10393
G1 X160.677 Y49.859 E.00197
G1 X160.903 Y50.036 E.00792
G1 X161.176 Y50.08 E.00763
G1 X161.414 Y50.004 E.00689
G1 X162.64 Y49.283 E.03926
G1 X162.944 Y49.053 E.01049
G1 X163.299 Y48.701 E.01381
G1 X163.47 Y49.111 E.01225
G1 X164.018 Y50.154 E.0325
G1 X191.643 Y98.002 E1.52428
G1 X192.575 Y99.549 E.04983
G1 X192.905 Y99.993 E.01527
G1 X192.414 Y100.132 E.01406
G1 X191.951 Y100.335 E.01395
G1 X190.72 Y101.048 E.03924
G1 X190.607 Y101.202 E.00527
G1 X190.548 Y101.466 E.00746
G1 X190.624 Y101.737 E.00777
G1 X192.507 Y105 E.10393
G1 X190.624 Y108.263 E.10393
G1 X190.592 Y108.326 E.00197
G1 X190.552 Y108.611 E.00793
G1 X190.65 Y108.87 E.00764
G1 X190.835 Y109.038 E.0069
G1 X191.951 Y109.665 E.03532
G1 X192.422 Y109.872 E.0142
G1 X192.919 Y110.01 E.01423
G1 X192.546 Y110.491 E.01678
G1 X192.26 Y110.937 E.0146
G1 X164.01 Y159.86 E1.5586
G1 X163.508 Y160.796 E.0293
M73 Q0 S97
G1 X163.299 Y161.299 E.01502
G1 X163.099 Y161.079 E.0082
G1 X162.64 Y160.717 E.01612
G1 X161.282 Y159.939 E.04318
G1 X161.092 Y159.919 E.00526
G1 X160.834 Y159.999 E.00746
G1 X160.637 Y160.2 E.00777
G1 X158.754 Y163.463 E.10393
G1 X154.986 Y163.463 E.10393
G1 X154.915 Y163.467 E.00197
G1 X154.649 Y163.575 E.00792
G1 X154.474 Y163.789 E.00764
G1 X154.421 Y164.034 E.0069
G1 X154.435 Y165.314 E.03532
G1 X154.492 Y165.825 E.01421
G1 X154.616 Y166.31 E.01381
G1 X154.568 Y166.316 E.00134
G1 X154.018 Y166.242 E.01533
G1 X153.489 Y166.217 E.0146
G1 X97.739 Y166.213 E1.53808
G1 X95.933 Y166.247 E.04983
G1 X95.384 Y166.31 E.01527
G1 X95.509 Y165.816 E.01406
G1 X95.565 Y165.314 E.01395
G1 X95.562 Y163.891 E.03924
G1 X95.485 Y163.717 E.00527
G1 X95.287 Y163.533 E.00746
G1 X95.014 Y163.463 E.00777
G1 X91.246 Y163.463 E.10393
G1 X89.323 Y160.141 E.1059
G1 X89.097 Y159.964 E.00792
G1 X88.824 Y159.92 E.00763
G1 X88.722 Y159.952 E.00295
M204 S1000
G1 X88.777 Y160.321 F10800
M204 S800
;TYPE:External perimeter
G1 F1200
G1 X87.551 Y161.042 E.03926
G1 X87.288 Y161.244 E.00914
G1 X86.892 Y161.658 E.0158
G1 X86.852 Y161.795 E.00394
;WIDTH:0.406212
G1 X86.881 Y161.872 E.00216
;WIDTH:0.39646
G1 X88.048 Y163.894 E.0604
G1 X88.127 Y164.177 E.00761
G1 X87.947 Y164.419 E.00781
G1 X86.574 Y162.048 E.07086
;WIDTH:0.406212
G1 X86.48 Y161.868 E.00541
;WIDTH:0.419999
G1 X86.237 Y161.168 E.02044
G1 X85.96 Y160.598 E.01749
G1 X85.656 Y160.034 E.01768
G1 X57.418 Y111.133 E1.5579
G1 X57.053 Y110.587 E.01813
G1 X56.49 Y109.925 E.02396
;WIDTH:0.404529
G1 X56.382 Y109.754 E.00536
;WIDTH:0.396459
G1 X55.015 Y107.379 E.07089
G1 X55.315 Y107.344 E.00781
G1 X55.508 Y107.533 E.007
G1 X56.689 Y109.577 E.06105
;WIDTH:0.399139
G1 X56.705 Y109.603 E.0008
;WIDTH:0.419999
G1 X56.891 Y109.671 E.00545
G1 X57.435 Y109.523 E.01556
G1 X57.914 Y109.312 E.01445
G1 X58.979 Y108.709 E.03377
G1 X59.064 Y108.609 E.00361
G1 X59.05 Y108.451 E.00439
G1 X57.057 Y105 E.10994
G1 X59.05 Y101.549 E.10994
G1 X59.072 Y101.421 E.00358
G1 X58.979 Y101.291 E.00442
G1 X57.898 Y100.68 E.03426
G1 X57.408 Y100.468 E.01473
G1 X56.891 Y100.329 E.01478
G1 X56.74 Y100.36 E.00424
;WIDTH:0.406153
G1 X56.689 Y100.423 E.00215
;WIDTH:0.396459
G1 X55.521 Y102.446 E.06042
G1 X55.315 Y102.656 E.00761
G1 X55.015 Y102.621 E.00781
G1 X56.382 Y100.246 E.07089
;WIDTH:0.406153
G1 X56.478 Y100.09 E.00487
;WIDTH:0.419999
G1 X56.817 Y99.718 E.01388
G1 X57.137 Y99.305 E.01442
G1 X57.413 Y98.875 E.0141
G1 X85.658 Y49.961 E1.55831
G1 X86.181 Y48.969 E.03094
M73 P1 R97
M73 Q1 S97
G1 X86.574 Y47.952 E.03009
;WIDTH:0.39646
G1 X87.947 Y45.581 E.07086
G1 X88.127 Y45.823 E.00781
G1 X88.048 Y46.106 E.00761
G1 X86.881 Y48.128 E.0604
;WIDTH:0.399138
G1 X86.866 Y48.156 E.0008
;WIDTH:0.419999
G1 X86.892 Y48.342 E.00518
G1 X87.184 Y48.671 E.01212
G1 X87.551 Y48.958 E.01286
G1 X88.777 Y49.679 E.03926
G1 X88.906 Y49.702 E.00361
G1 X89.036 Y49.611 E.00439
G1 X91.029 Y46.16 E.10994
G1 X95.014 Y46.16 E.10994
G1 X95.135 Y46.115 E.00358
G1 X95.202 Y45.97 E.00442
G1 X95.19 Y44.728 E.03426
G1 X95.129 Y44.197 E.01473
G1 X94.991 Y43.68 E.01478
G1 X94.888 Y43.565 E.00424
;WIDTH:0.406154
G1 X94.808 Y43.552 E.00215
;WIDTH:0.39646
G1 X92.472 Y43.552 E.06042
G1 X92.188 Y43.479 E.00761
G1 X92.068 Y43.202 E.00781
G1 X94.808 Y43.198 E.07089
;WIDTH:0.419999
G1 X95.865 Y43.363 E.02949
G1 X97.011 Y43.41 E.03165
G1 X152.994 Y43.41 E1.54451
G1 X154.135 Y43.363 E.03151
G1 X154.989 Y43.206 E.02395
;WIDTH:0.40453
G1 X155.192 Y43.198 E.00536
;WIDTH:0.39646
G1 X157.934 Y43.198 E.07095
G1 X157.81 Y43.479 E.00795
G1 X157.552 Y43.552 E.00694
G1 X155.192 Y43.552 E.06105
;WIDTH:0.399139
G1 X155.161 Y43.553 E.0008
;WIDTH:0.419999
G1 X155.009 Y43.68 E.00545
G1 X154.866 Y44.225 E.01556
G1 X154.809 Y44.747 E.01448
G1 X154.798 Y45.97 E.03374
G1 X154.842 Y46.093 E.00361
G1 X154.986 Y46.16 E.00439
G1 X158.971 Y46.16 E.10994
G1 X160.964 Y49.611 E.10994
G1 X161.063 Y49.694 E.00358
G1 X161.223 Y49.679 E.00441
G1 X162.449 Y48.958 E.03926
G1 X162.712 Y48.756 E.00914
G1 X163.108 Y48.342 E.0158
G1 X163.148 Y48.205 E.00394
;WIDTH:0.406212
G1 X163.119 Y48.128 E.00216
;WIDTH:0.396458
G1 X161.952 Y46.106 E.0604
G1 X161.873 Y45.823 E.00761
G1 X162.053 Y45.581 E.00781
G1 X163.426 Y47.952 E.07086
;WIDTH:0.406212
G1 X163.52 Y48.132 E.00541
;WIDTH:0.419999
G1 X163.763 Y48.832 E.02044
G1 X164.04 Y49.402 E.01749
G1 X164.344 Y49.966 E.01768
G1 X192.336 Y98.449 E1.54451
G1 X192.947 Y99.413 E.03151
G1 X193.618 Y100.246 E.02949
;WIDTH:0.396458
G1 X194.985 Y102.621 E.07089
G1 X194.685 Y102.656 E.00781
G1 X194.492 Y102.467 E.007
G1 X193.311 Y100.423 E.06105
;WIDTH:0.406152
G1 X193.26 Y100.36 E.00215
;WIDTH:0.419999
G1 X193.109 Y100.329 E.00424
G1 X192.565 Y100.477 E.01556
G1 X192.085 Y100.689 E.01448
G1 X191.021 Y101.291 E.03374
G1 X190.936 Y101.391 E.00361
G1 X190.95 Y101.549 E.00439
G1 X192.943 Y105 E.10994
G1 X190.95 Y108.451 E.10994
G1 X190.928 Y108.579 E.00358
G1 X191.021 Y108.709 E.00442
G1 X192.102 Y109.32 E.03426
G1 X192.592 Y109.532 E.01473
G1 X193.109 Y109.671 E.01478
G1 X193.259 Y109.639 E.00423
;WIDTH:0.404526
G1 X193.311 Y109.577 E.00214
;WIDTH:0.396458
G1 X194.479 Y107.554 E.06042
G1 X194.685 Y107.344 E.00761
G1 X194.985 Y107.379 E.00781
G1 X193.618 Y109.754 E.07089
;WIDTH:0.404526
G1 X193.523 Y109.911 E.00485
;WIDTH:0.419999
G1 X193.183 Y110.282 E.01388
G1 X192.863 Y110.695 E.01442
G1 X192.587 Y111.125 E.0141
G1 X164.342 Y160.039 E1.55831
G1 X163.819 Y161.031 E.03094
G1 X163.426 Y162.048 E.03009
;WIDTH:0.396459
G1 X162.053 Y164.419 E.07086
G1 X161.873 Y164.177 E.00781
G1 X161.94 Y163.915 E.007
G1 X163.119 Y161.872 E.06103
;WIDTH:0.399137
G1 X163.134 Y161.844 E.0008
;WIDTH:0.419999
G1 X163.108 Y161.658 E.00518
G1 X162.816 Y161.329 E.01212
G1 X162.449 Y161.042 E.01286
G1 X161.223 Y160.321 E.03926
G1 X161.094 Y160.298 E.00361
G1 X160.964 Y160.389 E.00439
G1 X158.971 Y163.84 E.10994
G1 X154.986 Y163.84 E.10994
G1 X154.865 Y163.885 E.00358
G1 X154.798 Y164.03 E.00442
G1 X154.81 Y165.272 E.03426
G1 X154.871 Y165.803 E.01473
G1 X155.009 Y166.32 E.01478
G1 X155.112 Y166.435 E.00424
;WIDTH:0.406154
G1 X155.192 Y166.448 E.00215
;WIDTH:0.39646
G1 X157.528 Y166.448 E.06042
G1 X157.812 Y166.521 E.00761
G1 X157.932 Y166.798 E.00781
G1 X155.192 Y166.802 E.07089
;WIDTH:0.406154
G1 X155.008 Y166.797 E.00487
;WIDTH:0.419999
G1 X154.517 Y166.689 E.01388
G1 X153.999 Y166.619 E.01442
G1 X153.489 Y166.594 E.0141
G1 X97.739 Y166.59 E1.53808
G1 X97.006 Y166.59 E.02023
G1 X95.865 Y166.637 E.03151
G1 X95.011 Y166.794 E.02395
;WIDTH:0.40453
G1 X94.808 Y166.802 E.00536
;WIDTH:0.39646
G1 X92.068 Y166.798 E.07089
G1 X92.188 Y166.521 E.00781
G1 X92.448 Y166.448 E.007
G1 X94.808 Y166.448 E.06105
;WIDTH:0.399139
G1 X94.839 Y166.447 E.0008
;WIDTH:0.419999
G1 X94.991 Y166.32 E.00545
G1 X95.134 Y165.775 E.01556
G1 X95.191 Y165.253 E.01448
G1 X95.202 Y164.03 E.03374
G1 X95.158 Y163.907 E.00361
G1 X95.014 Y163.84 E.00439
G1 X91.029 Y163.84 E.10994
G1 X89.036 Y160.389 E.10994
G1 X88.937 Y160.306 E.00358
G1 X88.837 Y160.315 E.00276
M204 S1000
G1 X88.493 Y160.04 F10800
;WIPE_START
G1 F8640
G1 X87.551 Y161.042 E-.34119
G1 X87.288 Y161.244 E-.0765
G1 X86.892 Y161.658 E-.13227
G1 X86.852 Y161.795 E-.03296
G1 X86.881 Y161.872 E-.0188
G1 X88.048 Y163.894 E-.53915
G1 X88.127 Y164.177 E-.0679
G1 X87.947 Y164.419 E-.06968
G1 X87.835 Y164.226 E-.05155
;WIPE_END
G1 E-.07 F2100
G1 Z.6 F720
G1 X154.342 Y44.504 F10800
G1 Z.4 F720
G1 E1.38 F2100
M204 S800
;TYPE:Solid infill
;WIDTH:0.421045
G1 F1200
G1 X153.883 Y44.045 E.01797
G1 X153.362 Y44.059 E.0144
G1 X154.151 Y44.848 E.03087
G1 X154.145 Y45.377 E.01462
G1 X152.668 Y43.9 E.05777
M204 S1000
;WIPE_START
G1 F8640
G1 X154.145 Y45.377 E-.48218
G1 X154.151 Y44.848 E-.12202
G1 X153.362 Y44.059 E-.25763
G1 X153.883 Y44.045 E-.12014
G1 X154.342 Y44.504 E-.14995
;WIPE_END
G1 E-.26807 F2100
G1 Z.6 F720
G1 X158.092 Y46.65 F10800
G1 Z.4 F720
G1 E1.38 F2100
M204 S800
G1 F1200
G1 X159.503 Y48.061 E.05521
M204 S1000
;WIPE_START
G1 F8640
G1 X158.092 Y46.65 E-.46076
;WIPE_END
G1 E-.93924 F2100
G1 Z.6 F720
G1 X164.094 Y50.513 F10800
G1 Z.4 F720
G1 E1.38 F2100
M204 S800
G1 F1200
G1 X162.965 Y49.384 E.04416
G1 X162.789 Y49.524 E.00621
G1 X162.651 Y49.605 E.00443
G1 X164.361 Y51.315 E.06689
G1 X165.092 Y52.58 E.04042
G1 X162.315 Y49.803 E.10864
G1 X161.978 Y50.001 E.01081
G1 X165.822 Y53.845 E.1504
G1 X166.552 Y55.11 E.04042
G1 X161.517 Y50.075 E.19701
M204 S1000
;WIPE_START
G1 F8640
G1 X165.59 Y54.148 E-1.33
;WIPE_END
G1 E-.07 F2100
G1 Z.6 F720
G1 X157.557 Y46.65 F10800
G1 Z.4 F720
G1 E1.38 F2100
M204 S800
G1 F1200
G1 X159.771 Y48.863 E.0866
G1 X160.417 Y49.982 E.03576
G1 X160.624 Y50.202 E.00835
G1 X160.901 Y50.336 E.00849
G1 X161.196 Y50.363 E.00821
G1 X161.259 Y50.352 E.00177
G1 X167.283 Y56.375 E.23568
G1 X168.013 Y57.641 E.04042
G1 X157.192 Y46.82 E.42338
G1 X156.657 Y46.819 E.0148
G1 X168.744 Y58.906 E.47288
G1 X169.474 Y60.171 E.04042
G1 X156.122 Y46.819 E.52239
G1 X155.588 Y46.819 E.0148
G1 X170.205 Y61.436 E.5719
G1 X170.935 Y62.702 E.04042
G1 X155.053 Y46.819 E.62141
G1 X154.941 Y46.819 E.0031
G1 X154.738 Y46.783 E.0057
G1 X154.546 Y46.698 E.0058
G1 X154.338 Y46.52 E.00759
G1 X154.218 Y46.332 E.00616
G1 X154.162 Y46.176 E.00459
G1 X154.139 Y45.905 E.00753
G1 X152.303 Y44.07 E.07181
G1 X151.769 Y44.07 E.01479
G1 X171.666 Y63.967 E.77848
G1 X172.396 Y65.232 E.04042
G1 X151.234 Y44.07 E.82798
G1 X150.699 Y44.07 E.01479
G1 X173.127 Y66.497 E.87748
G1 X173.857 Y67.763 E.04042
G1 X150.164 Y44.07 E.92698
G1 X149.63 Y44.07 E.01479
G1 X174.588 Y69.028 E.97648
G1 X175.318 Y70.293 E.04042
G1 X149.095 Y44.07 E1.02599
G1 X148.56 Y44.07 E.01479
G1 X176.049 Y71.558 E1.07549
G1 X176.779 Y72.823 E.04042
M73 P1 R96
G1 X148.025 Y44.07 E1.12499
G1 X147.491 Y44.07 E.01479
G1 X177.51 Y74.089 E1.17449
G1 X178.24 Y75.354 E.04042
G1 X146.956 Y44.07 E1.22399
G1 X146.421 Y44.07 E.01479
G1 X178.971 Y76.619 E1.2735
G1 X179.701 Y77.884 E.04042
M73 Q1 S96
G1 X145.886 Y44.07 E1.323
G1 X145.352 Y44.07 E.01479
G1 X180.432 Y79.15 E1.3725
G1 X181.162 Y80.415 E.04042
G1 X144.817 Y44.07 E1.422
G1 X144.282 Y44.07 E.01479
G1 X181.893 Y81.68 E1.4715
G1 X182.623 Y82.945 E.04042
M73 P2 R96
M73 Q2 S96
G1 X143.747 Y44.07 E1.52101
G1 X143.213 Y44.07 E.01479
G1 X183.354 Y84.211 E1.57051
G1 X184.084 Y85.476 E.04042
G1 X142.678 Y44.07 E1.62001
G1 X142.143 Y44.07 E.01479
G1 X184.815 Y86.741 E1.66951
G1 X185.545 Y88.006 E.04042
G1 X141.608 Y44.07 E1.71901
G1 X141.074 Y44.07 E.01479
G1 X186.275 Y89.271 E1.76852
G1 X187.006 Y90.537 E.04042
G1 X140.539 Y44.07 E1.81802
G1 X140.004 Y44.07 E.01479
G1 X187.736 Y91.802 E1.86752
G1 X188.467 Y93.067 E.04042
G1 X139.469 Y44.07 E1.91702
G1 X138.935 Y44.07 E.01479
G1 X189.197 Y94.332 E1.96652
G1 X189.928 Y95.598 E.04042
G1 X138.4 Y44.07 E2.01603
G1 X137.865 Y44.07 E.01479
G1 X190.658 Y96.863 E2.06553
G1 X191.389 Y98.128 E.04042
G1 X137.33 Y44.07 E2.11503
G1 X136.796 Y44.07 E.01479
M73 P2 R95
G1 X192.181 Y99.455 E2.16693
G1 X192.437 Y99.83 E.01257
M73 Q2 S95
G1 X192.136 Y99.945 E.00891
G1 X136.261 Y44.07 E2.18611
G1 X135.726 Y44.07 E.01479
G1 X191.77 Y100.113 E2.1927
G1 X191.427 Y100.305 E.01087
G1 X135.191 Y44.07 E2.20022
G1 X134.657 Y44.07 E.01479
M73 P3 R95
M73 Q3 S95
G1 X191.085 Y100.498 E2.20774
