; generated by PrusaSlicer 2.5.0+win64 on 2023-01-01 at 16:48:29 UTC

; 

; external perimeters extrusion width = 0.45mm
; perimeters extrusion width = 0.45mm
; infill extrusion width = 0.45mm
; solid infill extrusion width = 0.45mm
; top infill extrusion width = 0.40mm
; first layer extrusion width = 0.42mm

M73 P0 R238
M73 Q0 S239
M107
;TYPE:Custom
M862.3 P "MK3S" ; printer model check
M862.1 P0.4 ; nozzle diameter check
M115 U3.9.3 ; tell printer latest fw version
G90 ; use absolute coordinates
M83 ; extruder relative mode
M104 S230 ; set extruder temp
M140 S85 ; set bed temp
M190 S85 ; wait for bed temp
M109 S230 ; wait for extruder temp
G28 W ; home all without mesh bed level
G80 ; mesh bed leveling
G1 Y-3.0 F1000.0 ; go outside print area
G92 E0.0
G1 X60.0 E9.0 F1000.0 ; intro line
G1 X100.0 E12.5 F1000.0 ; intro line
G92 E0.0
M221 S95

; Don't change E values below. Excessive value can damage the printer.

M907 E538 ; set extruder motor current
G21 ; set units to millimeters
G90 ; use absolute coordinates
M83 ; use relative distances for extrusion
M900 K0.08 ; Filament gcode LA 1.5
M900 K45 ; Filament gcode LA 1.0
M107
;LAYER_CHANGE
;Z:0.2
;HEIGHT:0.2
;BEFORE_LAYER_CHANGE
G92 E0.0
;0.2


G1 E-1.4 F2100
G1 Z.4 F720
;AFTER_LAYER_CHANGE
;0.2
G1 Z.6
G1 X76.373 Y44.093 F10800
G1 Z.4 F720
G1 E1.38 F2100
M204 S800
;TYPE:Skirt/Brim
;WIDTH:0.42
G1 F1200
G1 X82.417 Y33.625 E.33348
G1 X83.41 Y32.689 E.03764
G1 X84.476 Y32.437 E.03022
G1 X165.522 Y32.437 E2.236
G1 X166.829 Y32.828 E.03764
G1 X167.581 Y33.625 E.03022
G1 X208.102 Y103.811 E2.23591
G1 X208.417 Y105.139 E.03764
G1 X208.102 Y106.189 E.03022
G1 X167.581 Y176.376 E2.23595
G1 X166.588 Y177.313 E.03764
M73 P0 R237
G1 X165.522 Y177.565 E.03022
G1 X84.476 Y177.565 E2.236
G1 X83.169 Y177.173 E.03764
G1 X82.417 Y176.376 E.03022
G1 X41.896 Y106.189 E2.23595
G1 X41.581 Y104.861 E.03764
G1 X41.896 Y103.811 E.03022
G1 X76.343 Y44.145 E1.90077
M204 S1000
; printing object RoofV2 id:0 copy 0
;WIPE_START
G1 F8640
G1 X79.223 Y39.157 E-1.33
;WIPE_END
G1 E-.07 F2100
G1 Z.6 F720
G1 X157.819 Y161.453 F10800
G1 Z.4 F720
G1 E1.38 F2100
M204 S800
;TYPE:Perimeter
;WIDTH:0.419999
G1 F1200
G1 X157.677 Y161.595 E.00554
G1 X157.394 Y161.67 E.00807
G1 X92.606 Y161.67 E1.78744
G1 X92.323 Y161.595 E.00808
G1 X92.116 Y161.388 E.00808
G1 X59.725 Y105.283 E1.78732
G1 X59.649 Y105 E.00808
M73 Q0 S238
G1 X59.725 Y104.717 E.00808
G1 X92.117 Y48.613 E1.7873
G1 X92.324 Y48.406 E.00808
G1 X92.607 Y48.331 E.00808
G1 X157.391 Y48.331 E1.78733
G1 X157.674 Y48.406 E.00808
G1 X157.881 Y48.613 E.00808
G1 X190.274 Y104.718 E1.78735
G1 X190.35 Y105.001 E.00808
G1 X190.274 Y105.284 E.00808
G1 X157.862 Y161.41 E1.78812
M204 S1000
G1 X157.558 Y161.199 F10800
M204 S800
;TYPE:External perimeter
G1 F1200
G1 X157.427 Y161.29 E.0044
G1 X157.394 Y161.293 E.0009
G1 X92.606 Y161.293 E1.78744
G1 X92.462 Y161.226 E.0044
G1 X92.443 Y161.199 E.0009
G1 X60.051 Y105.094 E1.78732
G1 X60.038 Y104.935 E.0044
G1 X92.444 Y48.802 E1.7882
G1 X92.574 Y48.711 E.0044
G1 X157.391 Y48.708 E1.78823
G1 X157.536 Y48.775 E.0044
G1 X157.554 Y48.802 E.0009
G1 X189.948 Y104.907 E1.78735
G1 X189.962 Y105.066 E.0044
G1 X157.588 Y161.147 E1.78651
M204 S1000
G1 X157.594 Y161.354 F10800
;WIPE_START
G1 F8640
G1 X157.427 Y161.29 E-.04973
G1 X157.394 Y161.293 E-.00755
G1 X151.882 Y161.293 E-1.27272
;WIPE_END
G1 E-.07 F2100
G1 Z.6 F720
G1 X165.006 Y35.708 F10800
G1 Z.4 F720
G1 E1.38 F2100
M204 S800
;TYPE:Perimeter
G1 F1200
G1 X205.011 Y105 E2.20741
G1 X165.006 Y174.294 E2.20746
G1 X84.992 Y174.294 E2.2075
M73 P0 R236
G1 X44.987 Y105 E2.20746
G1 X84.992 Y35.708 E2.20741
G1 X164.946 Y35.708 E2.20585
M204 S1000
G1 X165.224 Y35.331 F10800
M204 S800
;TYPE:External perimeter
G1 F1200
G1 X205.447 Y105 E2.21943
G1 X165.224 Y174.671 E2.21947
M73 Q0 S237
G1 X84.774 Y174.671 E2.21951
G1 X44.551 Y105 E2.21947
G1 X84.774 Y35.331 E2.21943
G1 X165.164 Y35.331 E2.21786
M204 S1000
G1 X165.224 Y35.731 F10800
;WIPE_START
G1 F8640
G1 X168.047 Y40.318 E-1.33
;WIPE_END
G1 E-.07 F2100
G1 Z.6 F720
G1 X164.17 Y35.821 F10800
G1 Z.4 F720
G1 E1.38 F2100
M204 S800
;TYPE:Solid infill
;WIDTH:0.420335
G1 F1200
G1 X165.53 Y37.182 E.05313
G1 X166.259 Y38.445 E.04027
G1 X163.806 Y35.991 E.09582
G1 X163.272 Y35.991 E.01474
G1 X166.988 Y39.708 E.14513
G1 X167.718 Y40.97 E.04027
G1 X162.738 Y35.991 E.19445
G1 X162.204 Y35.991 E.01474
G1 X168.447 Y42.233 E.24376
G1 X169.176 Y43.496 E.04027
G1 X161.671 Y35.991 E.29308
G1 X161.137 Y35.991 E.01474
G1 X169.905 Y44.759 E.34239
G1 X170.634 Y46.022 E.04027
G1 X160.603 Y35.991 E.39171
G1 X160.07 Y35.991 E.01474
G1 X171.363 Y47.285 E.44102
G1 X172.092 Y48.547 E.04027
G1 X159.536 Y35.991 E.49034
G1 X159.002 Y35.991 E.01474
G1 X172.821 Y49.81 E.53966
G1 X173.55 Y51.073 E.04027
G1 X158.468 Y35.991 E.58897
G1 X157.935 Y35.991 E.01474
G1 X174.279 Y52.336 E.63829
G1 X175.008 Y53.599 E.04027
G1 X157.401 Y35.991 E.6876
G1 X156.867 Y35.991 E.01474
G1 X175.737 Y54.861 E.73692
G1 X176.467 Y56.124 E.04027
G1 X156.333 Y35.991 E.78623
G1 X155.8 Y35.991 E.01474
G1 X177.196 Y57.387 E.83555
G1 X177.925 Y58.65 E.04027
G1 X155.266 Y35.991 E.88486
G1 X154.732 Y35.991 E.01474
M73 P0 R235
G1 X178.654 Y59.913 E.93418
G1 X179.383 Y61.176 E.04027
G1 X154.198 Y35.991 E.98349
G1 X153.665 Y35.991 E.01474
G1 X180.112 Y62.438 E1.03281
G1 X180.841 Y63.701 E.04027
M73 P1 R235
M73 Q1 S237
G1 X153.131 Y35.991 E1.08212
G1 X152.597 Y35.991 E.01474
G1 X181.57 Y64.964 E1.13144
G1 X182.299 Y66.227 E.04027
G1 X152.063 Y35.991 E1.18075
G1 X151.53 Y35.991 E.01474
G1 X183.028 Y67.49 E1.23007
G1 X183.757 Y68.753 E.04027
G1 X150.996 Y35.991 E1.27939
G1 X150.462 Y35.991 E.01474
G1 X184.487 Y70.015 E1.3287
G1 X185.216 Y71.278 E.04027
G1 X149.928 Y35.991 E1.37802
G1 X149.395 Y35.991 E.01474
M73 Q1 S236
G1 X185.945 Y72.541 E1.42733
G1 X186.674 Y73.804 E.04027
G1 X148.861 Y35.991 E1.47665
G1 X148.327 Y35.991 E.01474
G1 X187.403 Y75.067 E1.52596
G1 X188.132 Y76.33 E.04027
G1 X147.793 Y35.991 E1.57528
G1 X147.26 Y35.991 E.01474
G1 X188.861 Y77.592 E1.62459
G1 X189.59 Y78.855 E.04027
G1 X146.726 Y35.991 E1.67391
G1 X146.192 Y35.991 E.01474
G1 X190.319 Y80.118 E1.72322
G1 X191.048 Y81.381 E.04027
G1 X145.658 Y35.991 E1.77254
G1 X145.125 Y35.991 E.01474
G1 X157.181 Y48.048 E.47083
G1 X156.648 Y48.048 E.01474
G1 X144.591 Y35.991 E.47083
G1 X144.057 Y35.991 E.01474
G1 X156.114 Y48.048 E.47083
G1 X155.58 Y48.048 E.01474
G1 X143.523 Y35.991 E.47083
G1 X142.99 Y35.991 E.01474
G1 X155.046 Y48.048 E.47083
G1 X154.513 Y48.048 E.01474
G1 X142.456 Y35.991 E.47083
G1 X141.922 Y35.991 E.01474
G1 X153.979 Y48.048 E.47083
G1 X153.445 Y48.048 E.01474
G1 X141.388 Y35.991 E.47083
G1 X140.855 Y35.991 E.01474
G1 X152.911 Y48.048 E.47083
G1 X152.378 Y48.048 E.01474
G1 X140.321 Y35.991 E.47083
G1 X139.787 Y35.991 E.01474
G1 X151.844 Y48.048 E.47083
G1 X151.31 Y48.048 E.01474
G1 X139.253 Y35.991 E.47083
G1 X138.72 Y35.991 E.01474
G1 X150.776 Y48.048 E.47083
G1 X150.243 Y48.048 E.01474
G1 X138.186 Y35.991 E.47083
G1 X137.652 Y35.991 E.01474
G1 X149.709 Y48.048 E.47083
G1 X149.175 Y48.048 E.01474
G1 X137.118 Y35.991 E.47083
G1 X136.585 Y35.991 E.01474
M73 P1 R234
G1 X148.641 Y48.048 E.47083
G1 X148.108 Y48.048 E.01474
G1 X136.051 Y35.991 E.47083
G1 X135.517 Y35.991 E.01474
G1 X147.574 Y48.048 E.47083
G1 X147.04 Y48.048 E.01474
G1 X134.983 Y35.991 E.47083
G1 X134.45 Y35.991 E.01474
G1 X146.506 Y48.048 E.47083
G1 X145.973 Y48.048 E.01474
G1 X133.916 Y35.991 E.47083
G1 X133.382 Y35.991 E.01474
G1 X145.439 Y48.048 E.47083
G1 X144.905 Y48.048 E.01474
G1 X132.848 Y35.991 E.47083
G1 X132.315 Y35.991 E.01474
G1 X144.372 Y48.048 E.47083
G1 X143.838 Y48.048 E.01474
G1 X131.781 Y35.991 E.47083
G1 X131.247 Y35.991 E.01474
G1 X143.304 Y48.048 E.47083
G1 X142.77 Y48.048 E.01474
G1 X130.714 Y35.991 E.47083
G1 X130.18 Y35.991 E.01474
G1 X142.237 Y48.048 E.47083
G1 X141.703 Y48.048 E.01474
G1 X129.646 Y35.991 E.47083
G1 X129.112 Y35.991 E.01474
G1 X141.169 Y48.048 E.47083
G1 X140.635 Y48.048 E.01474
G1 X128.579 Y35.991 E.47083
G1 X128.045 Y35.991 E.01474
G1 X140.102 Y48.048 E.47083
G1 X139.568 Y48.048 E.01474
G1 X127.511 Y35.991 E.47083
G1 X126.977 Y35.991 E.01474
G1 X139.034 Y48.048 E.47083
G1 X138.5 Y48.048 E.01474
G1 X126.444 Y35.991 E.47083
G1 X125.91 Y35.991 E.01474
G1 X137.967 Y48.048 E.47083
G1 X137.433 Y48.048 E.01474
G1 X125.376 Y35.991 E.47083
G1 X124.842 Y35.991 E.01474
G1 X136.899 Y48.048 E.47083
G1 X136.365 Y48.048 E.01474
M73 Q1 S235
G1 X124.309 Y35.991 E.47083
G1 X123.775 Y35.991 E.01474
G1 X135.832 Y48.048 E.47083
G1 X135.298 Y48.048 E.01474
G1 X123.241 Y35.991 E.47083
G1 X122.707 Y35.991 E.01474
G1 X134.764 Y48.048 E.47083
G1 X134.23 Y48.048 E.01474
G1 X122.174 Y35.991 E.47083
G1 X121.64 Y35.991 E.01474
G1 X133.697 Y48.048 E.47083
G1 X133.163 Y48.048 E.01474
G1 X121.106 Y35.991 E.47083
G1 X120.572 Y35.991 E.01474
G1 X132.629 Y48.048 E.47083
G1 X132.095 Y48.048 E.01474
G1 X120.039 Y35.991 E.47083
G1 X119.505 Y35.991 E.01474
G1 X131.562 Y48.048 E.47083
G1 X131.028 Y48.048 E.01474
G1 X118.971 Y35.991 E.47083
G1 X118.437 Y35.991 E.01474
G1 X130.494 Y48.048 E.47083
G1 X129.96 Y48.048 E.01474
G1 X117.904 Y35.991 E.47083
G1 X117.37 Y35.991 E.01474
G1 X129.427 Y48.048 E.47083
G1 X128.893 Y48.048 E.01474
G1 X116.836 Y35.991 E.47083
G1 X116.302 Y35.991 E.01474
G1 X128.359 Y48.048 E.47083
G1 X127.825 Y48.048 E.01474
G1 X115.769 Y35.991 E.47083
G1 X115.235 Y35.991 E.01474
G1 X127.292 Y48.048 E.47083
G1 X126.758 Y48.048 E.01474
G1 X114.701 Y35.991 E.47083
G1 X114.167 Y35.991 E.01474
G1 X126.224 Y48.048 E.47083
G1 X125.69 Y48.048 E.01474
G1 X113.634 Y35.991 E.47083
G1 X113.1 Y35.991 E.01474
G1 X125.157 Y48.048 E.47083
G1 X124.623 Y48.048 E.01474
G1 X112.566 Y35.991 E.47083
G1 X112.032 Y35.991 E.01474
G1 X124.089 Y48.048 E.47083
G1 X123.555 Y48.048 E.01474
G1 X111.499 Y35.991 E.47083
G1 X110.965 Y35.991 E.01474
G1 X123.022 Y48.048 E.47083
G1 X122.488 Y48.048 E.01474
G1 X110.431 Y35.991 E.47083
G1 X109.897 Y35.991 E.01474
G1 X121.954 Y48.048 E.47083
G1 X121.42 Y48.048 E.01474
G1 X109.364 Y35.991 E.47083
G1 X108.83 Y35.991 E.01474
G1 X120.887 Y48.048 E.47083
G1 X120.353 Y48.048 E.01474
G1 X108.296 Y35.991 E.47083
G1 X107.762 Y35.991 E.01474
G1 X119.819 Y48.048 E.47083
G1 X119.285 Y48.048 E.01474
G1 X107.229 Y35.991 E.47083
G1 X106.695 Y35.991 E.01474
G1 X118.752 Y48.048 E.47083
G1 X118.218 Y48.048 E.01474
G1 X106.161 Y35.991 E.47083
G1 X105.627 Y35.991 E.01474
G1 X117.684 Y48.048 E.47083
G1 X117.15 Y48.048 E.01474
G1 X105.094 Y35.991 E.47083
G1 X104.56 Y35.991 E.01474
G1 X116.617 Y48.048 E.47083
G1 X116.083 Y48.048 E.01474
G1 X104.026 Y35.991 E.47083
G1 X103.493 Y35.991 E.01474
G1 X115.549 Y48.048 E.47083
G1 X115.016 Y48.048 E.01474
G1 X102.959 Y35.991 E.47083
G1 X102.425 Y35.991 E.01474
G1 X114.482 Y48.048 E.47083
G1 X113.948 Y48.048 E.01474
G1 X101.891 Y35.991 E.47083
G1 X101.358 Y35.991 E.01474
G1 X113.414 Y48.048 E.47083
G1 X112.881 Y48.048 E.01474
G1 X100.824 Y35.991 E.47083
G1 X100.29 Y35.991 E.01474
M73 P1 R233
G1 X112.347 Y48.048 E.47083
G1 X111.813 Y48.048 E.01474
G1 X99.756 Y35.991 E.47083
G1 X99.223 Y35.991 E.01474
G1 X111.279 Y48.048 E.47083
G1 X110.746 Y48.048 E.01474
G1 X98.689 Y35.991 E.47083
G1 X98.155 Y35.991 E.01474
G1 X110.212 Y48.048 E.47083
G1 X109.678 Y48.048 E.01474
G1 X97.621 Y35.991 E.47083
G1 X97.088 Y35.991 E.01474
G1 X109.144 Y48.048 E.47083
G1 X108.611 Y48.048 E.01474
G1 X96.554 Y35.991 E.47083
G1 X96.02 Y35.991 E.01474
G1 X108.077 Y48.048 E.47083
G1 X107.543 Y48.048 E.01474
G1 X95.486 Y35.991 E.47083
G1 X94.953 Y35.991 E.01474
G1 X107.009 Y48.048 E.47083
G1 X106.476 Y48.048 E.01474
G1 X94.419 Y35.991 E.47083
G1 X93.885 Y35.991 E.01474
G1 X105.942 Y48.048 E.47083
G1 X105.408 Y48.048 E.01474
G1 X93.351 Y35.991 E.47083
G1 X92.818 Y35.991 E.01474
G1 X104.874 Y48.048 E.47083
G1 X104.341 Y48.048 E.01474
G1 X92.284 Y35.991 E.47083
G1 X91.75 Y35.991 E.01474
G1 X103.807 Y48.048 E.47083
G1 X103.273 Y48.048 E.01474
G1 X91.216 Y35.991 E.47083
G1 X90.683 Y35.991 E.01474
G1 X102.739 Y48.048 E.47083
G1 X102.206 Y48.048 E.01474
G1 X90.149 Y35.991 E.47083
G1 X89.615 Y35.991 E.01474
G1 X101.672 Y48.048 E.47083
G1 X101.138 Y48.048 E.01474
G1 X89.081 Y35.991 E.47083
G1 X88.548 Y35.991 E.01474
G1 X100.604 Y48.048 E.47083
G1 X100.071 Y48.048 E.01474
M73 Q1 S234
G1 X88.014 Y35.991 E.47083
G1 X87.48 Y35.991 E.01474
G1 X99.537 Y48.048 E.47083
G1 X99.003 Y48.048 E.01474
G1 X86.946 Y35.991 E.47083
G1 X86.413 Y35.991 E.01474
G1 X98.469 Y48.048 E.47083
G1 X97.936 Y48.048 E.01474
G1 X85.879 Y35.991 E.47083
G1 X85.345 Y35.991 E.01474
G1 X97.402 Y48.048 E.47083
G1 X96.868 Y48.048 E.01474
G1 X85.029 Y36.209 E.46232
G1 X84.834 Y36.547 E.01079
G1 X96.334 Y48.048 E.44911
G1 X95.801 Y48.048 E.01474
M73 P2 R233
G1 X84.639 Y36.886 E.43589
G1 X84.443 Y37.224 E.01079
M73 Q2 S234
G1 X95.267 Y48.048 E.42268
G1 X94.733 Y48.048 E.01474
G1 X84.248 Y37.563 E.40946
G1 X84.053 Y37.901 E.01079
G1 X94.199 Y48.048 E.39625
G1 X93.666 Y48.048 E.01474
G1 X83.857 Y38.239 E.38303
G1 X83.662 Y38.578 E.01079
G1 X93.132 Y48.048 E.36982
G1 X92.599 Y48.048 E.01473
G1 X83.466 Y38.916 E.35662
G1 X83.271 Y39.254 E.01079
G1 X92.179 Y48.163 E.34788
G1 X91.98 Y48.324 E.00708
G1 X91.907 Y48.424 E.00342
G1 X83.076 Y39.593 E.34486
G1 X82.88 Y39.931 E.01079
G1 X91.707 Y48.758 E.34469
G1 X91.512 Y49.096 E.01079
G1 X82.685 Y40.27 E.34469
G1 X82.49 Y40.608 E.01079
G1 X91.316 Y49.435 E.34469
G1 X91.121 Y49.773 E.01079
G1 X82.294 Y40.946 E.34469
G1 X82.099 Y41.285 E.01079
G1 X90.926 Y50.111 E.34469
G1 X90.73 Y50.45 E.01079
G1 X81.904 Y41.623 E.34469
G1 X81.708 Y41.962 E.01079
G1 X90.535 Y50.788 E.34469
G1 X90.339 Y51.127 E.01079
G1 X81.513 Y42.3 E.34469
G1 X81.317 Y42.638 E.01079
G1 X90.144 Y51.465 E.34469
G1 X89.949 Y51.803 E.01079
G1 X81.122 Y42.977 E.34469
G1 X80.927 Y43.315 E.01079
G1 X89.753 Y52.142 E.34469
G1 X89.558 Y52.48 E.01079
G1 X80.731 Y43.653 E.34469
G1 X80.536 Y43.992 E.01079
G1 X89.363 Y52.818 E.34469
G1 X89.167 Y53.157 E.01079
G1 X80.341 Y44.33 E.34469
G1 X80.145 Y44.669 E.01079
G1 X88.972 Y53.495 E.34469
G1 X88.777 Y53.834 E.01079
G1 X79.95 Y45.007 E.34469
G1 X79.755 Y45.345 E.01079
G1 X88.581 Y54.172 E.34469
G1 X88.386 Y54.51 E.01079
G1 X79.559 Y45.684 E.34469
G1 X79.364 Y46.022 E.01079
G1 X88.19 Y54.849 E.34469
G1 X87.995 Y55.187 E.01079
G1 X79.168 Y46.361 E.34469
G1 X78.973 Y46.699 E.01079
G1 X87.8 Y55.525 E.34469
G1 X87.604 Y55.864 E.01079
G1 X78.778 Y47.037 E.34469
G1 X78.582 Y47.376 E.01079
G1 X87.409 Y56.202 E.34469
G1 X87.214 Y56.541 E.01079
G1 X78.387 Y47.714 E.34469
G1 X78.192 Y48.052 E.01079
G1 X87.018 Y56.879 E.34469
G1 X86.823 Y57.217 E.01079
G1 X77.996 Y48.391 E.34469
G1 X77.801 Y48.729 E.01079
G1 X86.628 Y57.556 E.34469
G1 X86.432 Y57.894 E.01079
G1 X77.606 Y49.068 E.34469
G1 X77.41 Y49.406 E.01079
G1 X86.237 Y58.232 E.34469
G1 X86.041 Y58.571 E.01079
G1 X77.215 Y49.744 E.34469
G1 X77.02 Y50.083 E.01079
G1 X85.846 Y58.909 E.34469
G1 X85.651 Y59.248 E.01079
G1 X76.824 Y50.421 E.34469
G1 X76.629 Y50.759 E.01079
G1 X85.455 Y59.586 E.34469
G1 X85.26 Y59.924 E.01079
G1 X76.433 Y51.098 E.34469
G1 X76.238 Y51.436 E.01079
G1 X85.065 Y60.263 E.34469
G1 X84.869 Y60.601 E.01079
G1 X76.043 Y51.775 E.34469
G1 X75.847 Y52.113 E.01079
G1 X84.674 Y60.94 E.34469
G1 X84.478 Y61.278 E.01079
G1 X75.652 Y52.451 E.34469
G1 X75.457 Y52.79 E.01079
G1 X84.283 Y61.616 E.34469
M73 P2 R232
G1 X84.088 Y61.955 E.01079
G1 X75.261 Y53.128 E.34469
G1 X75.066 Y53.467 E.01079
G1 X83.892 Y62.293 E.34469
G1 X83.697 Y62.631 E.01079
G1 X74.871 Y53.805 E.34469
G1 X74.675 Y54.143 E.01079
G1 X83.502 Y62.97 E.34469
G1 X83.306 Y63.308 E.01079
G1 X74.48 Y54.482 E.34469
G1 X74.284 Y54.82 E.01079
G1 X83.111 Y63.647 E.34469
G1 X82.916 Y63.985 E.01079
G1 X74.089 Y55.158 E.34469
G1 X73.894 Y55.497 E.01079
G1 X82.72 Y64.323 E.34469
G1 X82.525 Y64.662 E.01079
G1 X73.698 Y55.835 E.34469
G1 X73.503 Y56.174 E.01079
G1 X82.329 Y65 E.34468
G1 X82.134 Y65.338 E.01079
G1 X73.308 Y56.512 E.34468
G1 X73.112 Y56.85 E.01079
G1 X81.939 Y65.677 E.34468
G1 X81.743 Y66.015 E.01079
G1 X72.917 Y57.189 E.34468
G1 X72.722 Y57.527 E.01079
G1 X81.548 Y66.354 E.34468
G1 X81.353 Y66.692 E.01079
